; generated by Slic3r Prusa Edition 1.40.0-beta+win64 on 2024-10-30 at 13:55:55

; 

; external perimeters extrusion width = 0.45mm
; perimeters extrusion width = 0.45mm
; infill extrusion width = 0.45mm
; solid infill extrusion width = 0.45mm
; top infill extrusion width = 0.40mm

M107
M104 S200 ; set temperature
G28 ; home all axes
G1 Z5 F8000 ; lift nozzle
; Filament gcode
M109 S200 ; set temperature and wait for it to be reached
G21 ; set units to millimeters
G90 ; use absolute coordinates
M82 ; use absolute distances for extrusion
G92 E0
G1 Z0.400 F18000.000
G1 E-2.00000 F2400.00000
G92 E0
G1 X-29.431 Y13.623 F18000.000
G1 E2.00000 F2400.00000
G1 F1800
G1 X-31.043 Y12.005 E2.13833
G1 X-31.399 Y11.482 E2.17665
G1 X-32.135 Y9.207 E2.32145
G1 X-35.110 Y-10.482 E3.52736
G1 X-35.056 Y-11.004 E3.55911
G1 X-34.879 Y-11.497 E3.59086
G1 X-32.786 Y-15.129 E3.84474
G1 X-32.386 Y-15.624 E3.88328
G1 X-31.860 Y-15.983 E3.92181
G1 X-31.407 Y-16.144 E3.95093
G1 X-30.934 Y-16.201 E3.97982
G1 X26.561 Y-16.663 E7.46177
G1 X27.277 Y-16.540 E7.50577
G1 X29.446 Y-15.652 E7.64772
G1 X31.086 Y-13.995 E7.78894
G1 X31.499 Y-13.278 E7.83902
G1 X32.136 Y-11.242 E7.96820
G1 X35.096 Y8.228 E9.16090
G1 X35.067 Y8.915 E9.20249
G1 X34.824 Y9.561 E9.24431
G1 X31.303 Y15.656 E9.67058
G1 X30.913 Y16.112 E9.70693
G1 X30.417 Y16.444 E9.74306
G1 X29.523 Y16.662 E9.79877
G1 X22.467 Y16.662 E10.22611
G1 X-26.730 Y14.617 E13.20805
G1 X-27.310 Y14.490 E13.24397
G1 X-29.375 Y13.646 E13.37908
G1 E11.37908 F2400.00000
G92 E0
G1 X-27.588 Y-13.769 F18000.000
G1 E2.00000 F2400.00000
G1 F1800
G1 X-24.412 Y-13.769 E2.26404
G1 E0.26404 F2400.00000
G92 E0
G1 X-32.668 Y-10.519 F18000.000
G1 E2.00000 F2400.00000
G1 F1800
G1 X-30.778 Y-13.794 E2.22902
G1 X-27.833 Y-13.794 E2.40733
G1 X-29.724 Y-10.519 E2.63635
G1 X-27.862 Y-7.294 E2.86187
G1 X-24.138 Y-7.294 E3.08739
G1 X-22.276 Y-10.519 E3.31291
G1 X-24.167 Y-13.794 E3.54193
G1 X-21.222 Y-13.794 E3.72024
G1 X-19.332 Y-10.519 E3.94926
G1 X-20.616 Y-8.294 E4.10485
G1 X22.841 Y-8.294 E6.73662
G1 X22.242 Y-10.230 E6.85934
G1 X22.486 Y-11.882 E6.96047
G1 X23.420 Y-13.267 E7.06161
G1 X24.860 Y-14.112 E7.16275
G1 X26.524 Y-14.252 E7.26389
G1 X28.085 Y-13.659 E7.36503
G1 X29.237 Y-12.450 E7.46616
G1 X29.754 Y-10.862 E7.56730
G1 X29.533 Y-9.206 E7.66844
G1 X28.619 Y-7.809 E7.76958
G1 X27.191 Y-6.943 E7.87072
G1 X25.275 Y-6.755 E7.98730
G1 X25.275 Y2.706 E8.56022
G1 X29.334 Y2.706 E8.80604
G1 X32.668 Y8.481 E9.20988
G1 X29.334 Y14.256 E9.61372
G1 X22.666 Y14.256 E10.01756
G1 X19.332 Y8.481 E10.42139
G1 X20.616 Y6.256 E10.57699
G1 X-22.841 Y6.256 E13.20876
G1 X-22.242 Y8.191 E13.33147
G1 X-22.486 Y9.843 E13.43261
G1 X-23.420 Y11.228 E13.53375
G1 X-24.860 Y12.073 E13.63489
G1 X-26.524 Y12.213 E13.73602
G1 X-28.085 Y11.620 E13.83716
G1 X-29.237 Y10.411 E13.93830
G1 X-29.754 Y8.823 E14.03944
G1 X-29.533 Y7.168 E14.14058
G1 X-28.619 Y5.770 E14.24171
G1 X-27.191 Y4.904 E14.34285
G1 X-25.275 Y4.716 E14.45944
G1 X-25.275 Y-4.744 E15.03235
G1 X-29.334 Y-4.744 E15.27818
G1 X-32.638 Y-10.467 E15.67838
G1 E13.67838 F2400.00000
G92 E0
G1 X-26.691 Y6.353 F18000.000
G1 E2.00000 F2400.00000
G1 F1800
G1 X-25.309 Y6.353 E2.08371
G1 X-25.230 Y6.411 E2.08964
G1 X-24.191 Y7.166 E2.16742
G1 X-23.763 Y8.481 E2.25113
G1 X-24.191 Y9.795 E2.33484
G1 X-25.309 Y10.608 E2.41855
G1 X-26.691 Y10.608 E2.50227
G1 X-27.809 Y9.795 E2.58598
G1 X-28.237 Y8.481 E2.66969
G1 X-27.809 Y7.166 E2.75340
G1 X-26.740 Y6.389 E2.83347
G1 E0.83347 F2400.00000
G92 E0
G1 X-22.191 Y1.108 F18000.000
G1 E2.00000 F2400.00000
G1 F1800
G1 X-23.309 Y0.295 E2.08371
G1 X-23.737 Y-1.019 E2.16742
G1 X-23.309 Y-2.334 E2.25113
G1 X-22.191 Y-3.147 E2.33484
G1 X-20.809 Y-3.147 E2.41855
G1 X-19.691 Y-2.334 E2.50227
G1 X-19.263 Y-1.019 E2.58598
G1 X-19.691 Y0.295 E2.66969
G1 X-20.809 Y1.108 E2.75340
G1 X-22.131 Y1.108 E2.83348
G1 E0.83348 F2400.00000
G92 E0
G1 X-17.287 Y1.115 F18000.000
G1 E2.00000 F2400.00000
G1 F1800
G1 X-17.725 Y-0.489 E2.10070
G1 X-17.725 Y-1.550 E2.16491
G1 X-17.287 Y-3.154 E2.26561
G1 X-16.115 Y-4.320 E2.36576
G1 X-14.530 Y-4.744 E2.46514
G1 X14.549 Y-4.743 E4.22612
G1 X16.115 Y-4.320 E4.32436
G1 X17.287 Y-3.154 E4.42449
G1 X17.725 Y-1.550 E4.52519
G1 X17.725 Y-0.490 E4.58936
G1 X17.305 Y1.086 E4.68810
G1 X16.162 Y2.240 E4.78649
G1 X16.055 Y2.300 E4.79396
G1 X14.529 Y2.706 E4.88953
G1 X-14.549 Y2.704 E6.65050
G1 X-16.115 Y2.281 E6.74874
G1 X-17.244 Y1.157 E6.84524
G1 E4.84524 F2400.00000
G92 E0
G1 X23.763 Y-10.519 F18000.000
G1 E2.00000 F2400.00000
G1 F1800
G1 X24.191 Y-11.834 E2.08371
G1 X25.309 Y-12.647 E2.16742
G1 X26.691 Y-12.647 E2.25113
G1 X27.809 Y-11.834 E2.33484
G1 X28.237 Y-10.519 E2.41855
G1 X27.809 Y-9.205 E2.50227
G1 X26.691 Y-8.392 E2.58598
G1 X25.309 Y-8.392 E2.66969
G1 X24.191 Y-9.205 E2.75340
G1 X23.782 Y-10.462 E2.83348
G1 E0.83348 F2400.00000
G92 E0
G1 X22.191 Y-3.147 F18000.000
G1 E2.00000 F2400.00000
G1 F1800
G1 X23.309 Y-2.334 E2.08371
G1 X23.737 Y-1.019 E2.16742
G1 X23.309 Y0.295 E2.25113
G1 X22.191 Y1.108 E2.33484
G1 X20.809 Y1.108 E2.41855
G1 X19.691 Y0.295 E2.50227
G1 X19.263 Y-1.019 E2.58598
G1 X19.691 Y-2.334 E2.66969
G1 X20.809 Y-3.147 E2.75340
G1 X22.131 Y-3.147 E2.83348
G1 E0.83348 F2400.00000
G92 E0
G1 X24.138 Y5.256 F18000.000
G1 E2.00000 F2400.00000
G1 F1800
G1 X27.862 Y5.256 E2.22552
G1 X29.724 Y8.481 E2.45104
G1 X27.862 Y11.706 E2.67656
G1 X24.138 Y11.706 E2.90208
G1 X22.276 Y8.481 E3.12760
G1 X24.108 Y5.308 E3.34949
G1 X23.835 Y5.234 F18000.000
G1 F1800
G1 X23.876 Y5.001 E3.36385
G1 X23.961 Y5.016 E3.36908
G1 X24.249 Y4.982 F18000.000
G1 F1800
G1 X24.298 Y4.705 E3.38613
G1 X23.581 Y4.579 E3.43023
G1 X23.518 Y4.937 E3.45229
G1 X23.159 Y4.874 E3.47434
G1 X23.285 Y4.157 E3.51845
G1 X23.644 Y4.220 E3.54050
G1 X23.707 Y3.861 E3.56255
G1 X23.349 Y3.798 E3.58461
G1 X23.475 Y3.081 E3.62871
G1 X23.834 Y3.144 E3.65077
G1 X23.771 Y3.503 E3.67282
G1 X24.129 Y3.566 E3.69487
G1 X24.192 Y3.207 E3.71693
G1 X24.551 Y3.271 E3.73898
G1 X24.425 Y3.988 E3.78309
G1 X24.066 Y3.925 E3.80514
G1 X24.003 Y4.283 E3.82720
G1 X24.720 Y4.410 E3.87130
G1 X24.783 Y4.051 E3.89336
G1 X25.142 Y4.114 E3.91541
G1 X25.079 Y4.473 E3.93746
G1 X25.796 Y4.600 E3.98157
G1 X25.859 Y4.241 E4.00362
G1 X25.500 Y4.178 E4.02568
G1 X25.564 Y3.819 E4.04773
G1 X25.922 Y3.882 E4.06978
G1 X25.986 Y3.524 E4.09184
G1 X25.268 Y3.397 E4.13594
G1 X25.205 Y3.756 E4.15800
G1 X24.846 Y3.693 E4.18005
G1 X25.002 Y2.811 E4.23427
G1 X25.342 Y2.979 F18000.000
G1 F1800
G1 X25.332 Y3.039 E4.23795
G1 X26.049 Y3.165 E4.28205
G1 X26.082 Y2.979 E4.29351
G1 X26.451 Y2.979 F18000.000
G1 F1800
G1 X26.407 Y3.228 E4.30886
G1 X27.125 Y3.355 E4.35297
G1 X27.188 Y2.996 E4.37502
G1 X27.547 Y3.059 E4.39707
G1 X27.357 Y4.135 E4.46323
G1 X26.998 Y4.072 E4.48529
G1 X27.061 Y3.713 E4.50734
G1 X26.344 Y3.587 E4.55145
G1 X26.281 Y3.946 E4.57350
G1 X26.640 Y4.009 E4.59556
G1 X26.576 Y4.367 E4.61761
G1 X26.218 Y4.304 E4.63966
G1 X26.154 Y4.663 E4.66172
G1 X26.872 Y4.789 E4.70582
G1 X26.935 Y4.431 E4.72788
G1 X27.294 Y4.494 E4.74993
G1 X27.230 Y4.852 E4.77198
G1 X27.948 Y4.979 E4.81609
G1 X28.011 Y4.620 E4.83814
G1 X27.652 Y4.557 E4.86020
G1 X27.779 Y3.840 E4.90430
G1 X28.137 Y3.903 E4.92636
G1 X28.074 Y4.262 E4.94841
G1 X28.433 Y4.325 E4.97046
G1 X28.496 Y3.966 E4.99252
G1 X28.855 Y4.030 E5.01457
G1 X28.728 Y4.747 E5.05868
G1 X28.369 Y4.684 E5.08073
G1 X28.306 Y5.042 E5.10278
G1 X28.665 Y5.105 E5.12484
G1 X28.538 Y5.823 E5.16895
G1 X28.501 Y5.816 E5.17125
G1 X28.814 Y6.358 F18000.000
G1 F1800
G1 X28.834 Y6.245 E5.17823
G1 X29.192 Y6.308 E5.20028
G1 X29.129 Y6.666 E5.22234
G1 X29.846 Y6.793 E5.26644
G1 X29.910 Y6.434 E5.28850
G1 X29.551 Y6.371 E5.31055
G1 X29.614 Y6.012 E5.33260
G1 X29.973 Y6.076 E5.35466
G1 X30.036 Y5.717 E5.37671
G1 X29.319 Y5.591 E5.42082
G1 X29.256 Y5.949 E5.44287
G1 X28.897 Y5.886 E5.46492
G1 X29.023 Y5.169 E5.50903
G1 X29.382 Y5.232 E5.53108
G1 X29.445 Y4.873 E5.55314
G1 X29.087 Y4.810 E5.57519
G1 X29.213 Y4.093 E5.61930
G1 X29.572 Y4.156 E5.64135
G1 X29.509 Y4.515 E5.66340
G1 X29.867 Y4.578 E5.68546
G1 X29.922 Y4.269 E5.70444
G1 X30.205 Y4.760 F18000.000
G1 F1800
G1 X30.163 Y5.000 E5.71919
G1 X29.804 Y4.936 E5.74124
G1 X29.741 Y5.295 E5.76329
G1 X30.458 Y5.422 E5.80740
G1 X30.488 Y5.251 E5.81792
G1 X30.839 Y5.859 F18000.000
G1 F1800
G1 X30.395 Y5.780 E5.84525
G1 X30.332 Y6.139 E5.86731
G1 X30.690 Y6.202 E5.88936
G1 X30.627 Y6.561 E5.91141
G1 X30.268 Y6.497 E5.93347
G1 X30.205 Y6.856 E5.95552
G1 X30.922 Y6.983 E5.99963
G1 X30.986 Y6.624 E6.02168
G1 X31.315 Y6.682 E6.04192
G1 X31.338 Y6.722 F18000.000
G1 F1800
G1 X31.218 Y7.404 E6.08386
G1 X30.859 Y7.341 E6.10591
G1 X30.796 Y7.700 E6.12796
G1 X31.154 Y7.763 E6.15002
G1 X31.028 Y8.480 E6.19412
G1 X30.669 Y8.417 E6.21618
G1 X30.733 Y8.058 E6.23823
G1 X30.374 Y7.995 E6.26028
G1 X30.311 Y8.354 E6.28234
G1 X29.952 Y8.291 E6.30439
G1 X30.079 Y7.573 E6.34850
G1 X30.437 Y7.637 E6.37055
G1 X30.500 Y7.278 E6.39261
G1 X29.425 Y7.088 E6.45877
G1 X29.380 Y7.339 E6.47420
G1 X29.452 Y7.463 F18000.000
G1 F1800
G1 X29.720 Y7.510 E6.49070
G1 X29.664 Y7.830 E6.51036
G1 X29.937 Y8.658 F18000.000
G1 F1800
G1 X30.248 Y8.712 E6.52946
G1 X30.184 Y9.071 E6.55151
G1 X30.543 Y9.134 E6.57357
G1 X30.606 Y8.776 E6.59562
G1 X30.965 Y8.839 E6.61767
G1 X30.838 Y9.556 E6.66178
G1 X30.480 Y9.493 E6.68383
G1 X30.416 Y9.852 E6.70589
G1 X30.775 Y9.915 E6.72794
G1 X30.649 Y10.632 E6.77205
G1 X30.290 Y10.569 E6.79410
G1 X30.353 Y10.210 E6.81615
G1 X29.636 Y10.084 E6.86026
G1 X29.573 Y10.442 E6.88231
G1 X29.931 Y10.506 E6.90437
G1 X29.868 Y10.864 E6.92642
G1 X29.509 Y10.801 E6.94847
G1 X29.446 Y11.160 E6.97053
G1 X30.163 Y11.286 E7.01464
G1 X30.227 Y10.927 E7.03669
G1 X30.585 Y10.991 E7.05874
G1 X30.522 Y11.349 E7.08080
G1 X30.681 Y11.377 E7.09054
G1 X30.445 Y11.785 F18000.000
G1 F1800
G1 X30.459 Y11.708 E7.09528
G1 X29.742 Y11.581 E7.13938
G1 X29.678 Y11.940 E7.16144
G1 X29.320 Y11.877 E7.18349
G1 X29.383 Y11.518 E7.20554
G1 X28.666 Y11.392 E7.24965
G1 X28.603 Y11.750 E7.27170
G1 X28.961 Y11.814 E7.29376
G1 X28.835 Y12.531 E7.33786
G1 X28.476 Y12.468 E7.35992
G1 X28.539 Y12.109 E7.38197
G1 X28.181 Y12.046 E7.40402
G1 X28.117 Y12.404 E7.42608
G1 X27.759 Y12.341 E7.44813
G1 X27.823 Y11.979 E7.47042
G1 X27.453 Y11.979 F18000.000
G1 F1800
G1 X27.400 Y12.278 E7.48883
G1 X27.042 Y12.215 E7.51088
G1 X27.083 Y11.979 E7.52539
G1 X26.713 Y11.979 F18000.000
G1 F1800
G1 X26.683 Y12.151 E7.53602
G1 X26.324 Y12.088 E7.55807
G1 X26.344 Y11.979 E7.56481
G1 X25.974 Y11.979 F18000.000
G1 F1800
G1 X25.839 Y12.742 E7.61177
G1 X25.481 Y12.679 E7.63382
G1 X25.544 Y12.320 E7.65587
G1 X24.827 Y12.194 E7.69998
G1 X24.763 Y12.553 E7.72203
G1 X25.122 Y12.616 E7.74409
G1 X25.059 Y12.974 E7.76614
G1 X24.700 Y12.911 E7.78819
G1 X24.637 Y13.270 E7.81025
G1 X25.354 Y13.396 E7.85435
G1 X25.417 Y13.038 E7.87641
G1 X25.776 Y13.101 E7.89846
G1 X25.713 Y13.460 E7.92051
G1 X26.430 Y13.586 E7.96462
G1 X26.493 Y13.227 E7.98667
G1 X26.135 Y13.164 E8.00873
G1 X26.261 Y12.447 E8.05283
G1 X26.620 Y12.510 E8.07489
G1 X26.556 Y12.869 E8.09694
G1 X26.915 Y12.932 E8.11899
G1 X26.978 Y12.573 E8.14105
G1 X27.337 Y12.637 E8.16310
G1 X27.210 Y13.354 E8.20721
G1 X26.852 Y13.291 E8.22926
G1 X26.789 Y13.649 E8.25132
G1 X27.864 Y13.839 E8.31748
G1 X27.928 Y13.480 E8.33953
G1 X27.569 Y13.417 E8.36158
G1 X27.696 Y12.700 E8.40569
G1 X28.054 Y12.763 E8.42774
G1 X27.991 Y13.122 E8.44980
G1 X28.350 Y13.185 E8.47185
G1 X28.413 Y12.826 E8.49390
G1 X28.771 Y12.890 E8.51596
G1 X28.645 Y13.607 E8.56006
G1 X28.286 Y13.544 E8.58212
G1 X28.223 Y13.902 E8.60417
G1 X28.679 Y13.982 E8.63218
G1 X28.948 Y13.982 F18000.000
G1 F1800
G1 X29.004 Y13.670 E8.65140
G1 X29.324 Y13.727 E8.67112
G1 X29.712 Y13.055 F18000.000
G1 F1800
G1 X29.489 Y13.016 E8.68484
G1 X29.425 Y13.375 E8.70690
G1 X29.067 Y13.311 E8.72895
G1 X29.257 Y12.235 E8.79511
G1 X29.615 Y12.299 E8.81716
G1 X29.552 Y12.657 E8.83922
G1 X29.906 Y12.720 E8.86096
G1 X30.099 Y12.384 F18000.000
G1 F1800
G1 X29.974 Y12.362 E8.86869
G1 X30.037 Y12.003 E8.89074
G1 X30.293 Y12.048 E8.90649
G1 X31.068 Y10.706 F18000.000
G1 F1800
G1 X31.007 Y10.695 E8.91024
G1 X31.134 Y9.978 E8.95434
G1 X31.456 Y10.035 E8.97415
G1 X31.510 Y9.941 F18000.000
G1 F1800
G1 X31.556 Y9.683 E8.99002
G1 X31.197 Y9.619 E9.01207
G1 X31.323 Y8.902 E9.05618
G1 X31.682 Y8.965 E9.07823
G1 X31.619 Y9.324 E9.10028
G1 X31.843 Y9.364 E9.11409
G1 X32.231 Y8.692 F18000.000
G1 F1800
G1 X32.104 Y8.670 E9.12189
G1 X32.167 Y8.311 E9.14394
G1 X31.808 Y8.248 E9.16599
G1 X31.745 Y8.607 E9.18805
G1 X31.387 Y8.544 E9.21010
G1 X31.513 Y7.826 E9.25421
G1 X31.872 Y7.890 E9.27626
G1 X31.904 Y7.704 E9.28769
G1 X31.790 Y7.505 F18000.000
G1 F1800
G1 X31.576 Y7.468 E9.30083
G1 X31.621 Y7.213 E9.31649
G1 X31.077 Y6.270 F18000.000
G1 F1800
G1 X31.049 Y6.265 E9.31822
G1 X31.055 Y6.232 E9.32028
G1 E7.32028 F2400.00000
G92 E0
G1 X29.866 Y8.781 F18000.000
G1 E2.00000 F2400.00000
G1 F1800
G1 X29.762 Y9.366 E2.03598
G1 X30.121 Y9.430 E2.05803
G1 X30.058 Y9.788 E2.08009
G1 X29.356 Y9.665 E2.12326
G1 X29.162 Y10.000 F18000.000
G1 F1800
G1 X29.277 Y10.020 E2.13036
G1 X29.214 Y10.379 E2.15241
G1 X28.968 Y10.336 E2.16753
G1 X28.801 Y10.626 F18000.000
G1 F1800
G1 X28.792 Y10.675 E2.17054
G1 X29.151 Y10.738 E2.19259
G1 X29.088 Y11.096 E2.21465
G1 X28.581 Y11.007 E2.24582
G1 X28.268 Y11.548 F18000.000
G1 F1800
G1 X28.244 Y11.687 E2.25440
G1 X28.193 Y11.678 E2.25752
G1 E0.25752 F2400.00000
G92 E0
G1 X26.582 Y13.982 F18000.000
G1 E2.00000 F2400.00000
G1 F1800
G1 X26.367 Y13.945 E2.01321
G1 X26.360 Y13.982 E2.01554
G1 X25.990 Y13.982 F18000.000
G1 F1800
G1 X26.008 Y13.881 E2.02176
G1 X25.291 Y13.755 E2.06586
G1 X25.251 Y13.982 E2.07986
G1 X24.881 Y13.982 F18000.000
G1 F1800
G1 X24.932 Y13.692 E2.09774
G1 X24.215 Y13.565 E2.14185
G1 X24.152 Y13.924 E2.16390
G1 X23.793 Y13.861 E2.18596
G1 X23.856 Y13.502 E2.20801
G1 X23.139 Y13.375 E2.25212
G1 X23.076 Y13.734 E2.27417
G1 X23.434 Y13.797 E2.29622
G1 X23.402 Y13.982 E2.30761
G1 X22.635 Y13.656 F18000.000
G1 F1800
G1 X22.717 Y13.671 E2.31265
G1 X22.780 Y13.312 E2.33470
G1 X22.398 Y13.245 E2.35825
G1 X22.133 Y12.787 F18000.000
G1 F1800
G1 X22.190 Y12.469 E2.37786
G1 X21.922 Y12.421 E2.39431
G1 X21.850 Y12.297 F18000.000
G1 F1800
G1 X21.958 Y11.688 E2.43174
G1 X22.316 Y11.751 E2.45379
G1 X22.253 Y12.110 E2.47585
G1 X22.612 Y12.173 E2.49790
G1 X22.675 Y11.815 E2.51995
G1 X23.033 Y11.878 E2.54201
G1 X22.907 Y12.595 E2.58611
G1 X22.548 Y12.532 E2.60817
G1 X22.485 Y12.890 E2.63022
G1 X23.202 Y13.017 E2.67433
G1 X23.266 Y12.658 E2.69638
G1 X23.624 Y12.721 E2.71843
G1 X23.561 Y13.080 E2.74049
G1 X24.278 Y13.207 E2.78459
G1 X24.341 Y12.848 E2.80665
G1 X23.983 Y12.785 E2.82870
G1 X24.046 Y12.426 E2.85075
G1 X24.405 Y12.489 E2.87281
G1 X24.468 Y12.131 E2.89486
G1 X23.751 Y12.004 E2.93897
G1 X23.687 Y12.363 E2.96102
G1 X23.329 Y12.300 E2.98308
G1 X23.519 Y11.224 E3.04924
G1 X23.547 Y11.229 E3.05102
G1 X23.072 Y10.405 F18000.000
G1 F1800
G1 X22.928 Y10.380 E3.05989
G1 X22.864 Y10.739 E3.08195
G1 X23.223 Y10.802 E3.10400
G1 X23.097 Y11.519 E3.14811
G1 X22.738 Y11.456 E3.17016
G1 X22.801 Y11.097 E3.19221
G1 X22.443 Y11.034 E3.21427
G1 X22.379 Y11.393 E3.23632
G1 X22.021 Y11.329 E3.25837
G1 X22.147 Y10.612 E3.30248
G1 X22.506 Y10.675 E3.32453
G1 X22.569 Y10.317 E3.34659
G1 X22.210 Y10.254 E3.36864
G1 X22.337 Y9.536 E3.41275
G1 X22.597 Y9.582 E3.42872
G1 X22.675 Y9.717 F18000.000
G1 F1800
G1 X22.632 Y9.958 E3.44353
G1 X22.834 Y9.994 E3.45595
G1 X22.108 Y8.736 F18000.000
G1 F1800
G1 X22.042 Y9.114 E3.47922
G1 X21.683 Y9.051 E3.50127
G1 X21.746 Y8.693 E3.52333
