; generated by Slic3r Prusa Edition 1.40.0-beta+win64 on 2024-10-30 at 13:50:02

; 

; external perimeters extrusion width = 0.45mm
; perimeters extrusion width = 0.45mm
; infill extrusion width = 0.45mm
; solid infill extrusion width = 0.45mm
; top infill extrusion width = 0.40mm

M107
M104 S200 ; set temperature
G28 ; home all axes
G1 Z5 F8000 ; lift nozzle
; Filament gcode
M109 S200 ; set temperature and wait for it to be reached
G21 ; set units to millimeters
G90 ; use absolute coordinates
M82 ; use absolute distances for extrusion
G92 E0
G1 Z0.400 F18000.000
G1 E-2.00000 F2400.00000
G92 E0
G1 X-43.085 Y6.402 F18000.000
G1 E2.00000 F2400.00000
G1 F1800
G1 X-43.618 Y4.526 E2.11810
G1 X-43.682 Y4.002 E2.15006
G1 X-43.682 Y-35.029 E4.51379
G1 X-43.620 Y-35.517 E4.54356
G1 X-43.125 Y-37.307 E4.65603
G1 X-36.894 Y-49.740 E5.49823
G1 X-35.525 Y-51.159 E5.61766
G1 X-35.124 Y-51.468 E5.64831
G1 X-34.635 Y-51.686 E5.68072
G1 X-32.890 Y-52.147 E5.79002
G1 X38.504 Y-52.182 E10.11363
G1 X38.999 Y-52.124 E10.14384
G1 X40.701 Y-51.665 E10.25060
G1 X41.143 Y-51.457 E10.28015
G1 X41.530 Y-51.154 E10.30992
G1 X42.707 Y-49.974 E10.41083
G1 X43.026 Y-49.523 E10.44434
G1 X43.205 Y-49.069 E10.47389
G1 X43.680 Y-47.100 E10.59650
G1 X43.682 Y47.011 E16.29588
G1 X43.621 Y47.513 E16.32653
G1 X43.125 Y49.307 E16.43922
G1 X42.707 Y49.974 E16.48692
G1 X41.171 Y51.440 E16.61548
G1 X40.607 Y51.694 E16.65293
G1 X38.611 Y52.179 E16.77732
G1 X-0.529 Y52.182 E19.14767
G1 X-1.017 Y52.120 E19.17744
G1 X-2.807 Y51.625 E19.28991
G1 X-3.433 Y51.243 E19.33435
G1 X-4.726 Y49.953 E19.44497
G1 X-42.736 Y6.942 E22.92104
G1 X-43.053 Y6.452 E22.95638
G1 E20.95638 F2400.00000
G92 E0
G1 X-36.884 Y-38.200 F18000.000
G1 E2.00000 F2400.00000
G1 F1800
G1 X-35.700 Y-39.384 E2.10135
G1 X-35.275 Y-40.970 E2.20084
G1 X-35.275 Y-46.970 E2.56420
G1 X-34.896 Y-48.384 E2.65280
G1 X-33.884 Y-49.396 E2.73954
G1 X-32.470 Y-49.775 E2.82814
G1 X38.470 Y-49.775 E7.12430
G1 X39.884 Y-49.396 E7.21290
G1 X40.896 Y-48.384 E7.29965
G1 X41.275 Y-46.970 E7.38825
G1 X41.275 Y46.970 E13.07729
G1 X40.896 Y48.384 E13.16589
G1 X39.884 Y49.396 E13.25263
G1 X38.470 Y49.775 E13.34123
G1 X-0.470 Y49.775 E15.69948
G1 X-1.884 Y49.396 E15.78808
G1 X-2.896 Y48.384 E15.87482
G1 X-3.275 Y46.970 E15.96342
G1 X-3.275 Y9.970 E18.20414
G1 X-3.700 Y8.384 E18.30363
G1 X-4.884 Y7.200 E18.40498
G1 X-6.470 Y6.775 E18.50447
G1 X-38.470 Y6.775 E20.44239
G1 X-39.884 Y6.396 E20.53098
G1 X-40.896 Y5.384 E20.61773
G1 X-41.275 Y3.970 E20.70633
G1 X-41.275 Y-34.970 E23.06458
G1 X-40.896 Y-36.384 E23.15318
G1 X-39.884 Y-37.396 E23.23992
G1 X-36.941 Y-38.185 E23.42437
G1 E21.42437 F2400.00000
G92 E0
G1 X5.809 Y37.873 F18000.000
G1 E2.00000 F2400.00000
G1 F1800
G1 X7.191 Y37.873 E2.08371
G1 X8.309 Y38.685 E2.16742
G1 X8.737 Y40.000 E2.25113
G1 X8.309 Y41.315 E2.33484
G1 X7.191 Y42.127 E2.41855
G1 X5.809 Y42.127 E2.50226
G1 X4.691 Y41.315 E2.58598
G1 X4.263 Y40.000 E2.66969
G1 X4.691 Y38.685 E2.75340
G1 X5.760 Y37.908 E2.83347
G1 E0.83347 F2400.00000
G92 E0
G1 X20.809 Y-6.873 F18000.000
G1 E2.00000 F2400.00000
G1 F1800
G1 X19.691 Y-7.685 E2.08371
G1 X19.263 Y-9.000 E2.16742
G1 X19.691 Y-10.315 E2.25113
G1 X20.809 Y-11.127 E2.33484
G1 X22.191 Y-11.127 E2.41855
G1 X23.309 Y-10.315 E2.50226
G1 X23.737 Y-9.000 E2.58598
G1 X23.309 Y-7.685 E2.66969
G1 X22.191 Y-6.873 E2.75340
G1 X20.869 Y-6.873 E2.83347
G1 E0.83347 F2400.00000
G92 E0
G1 X32.809 Y-30.873 F18000.000
G1 E2.00000 F2400.00000
G1 F1800
G1 X31.691 Y-31.685 E2.08371
G1 X31.263 Y-33.000 E2.16742
G1 X31.691 Y-34.315 E2.25113
G1 X32.809 Y-35.127 E2.33484
G1 X34.191 Y-35.127 E2.41855
G1 X35.309 Y-34.315 E2.50226
G1 X35.737 Y-33.000 E2.58598
G1 X35.309 Y-31.685 E2.66969
G1 X34.191 Y-30.873 E2.75340
G1 X32.869 Y-30.873 E2.83347
G1 E0.83347 F2400.00000
G92 E0
G1 X18.127 Y-35.809 F18000.000
G1 E2.00000 F2400.00000
G1 F1800
G1 X17.315 Y-34.691 E2.08371
G1 X16.000 Y-34.263 E2.16742
G1 X15.872 Y-34.305 E2.17559
G1 X14.685 Y-34.691 E2.25113
G1 X13.873 Y-35.809 E2.33484
G1 X13.873 Y-37.191 E2.41855
G1 X14.685 Y-38.309 E2.50226
G1 X16.000 Y-38.737 E2.58598
G1 X17.315 Y-38.309 E2.66969
G1 X18.127 Y-37.191 E2.75340
G1 X18.127 Y-35.869 E2.83347
G1 E0.83347 F2400.00000
G92 E0
G1 X-7.873 Y-35.809 F18000.000
G1 E2.00000 F2400.00000
G1 F1800
G1 X-8.685 Y-34.691 E2.08371
G1 X-10.000 Y-34.263 E2.16742
G1 X-10.128 Y-34.305 E2.17559
G1 X-11.315 Y-34.691 E2.25113
G1 X-12.127 Y-35.809 E2.33484
G1 X-12.127 Y-37.191 E2.41855
G1 X-11.315 Y-38.309 E2.50226
G1 X-10.000 Y-38.737 E2.58598
G1 X-8.685 Y-38.309 E2.66969
G1 X-7.873 Y-37.191 E2.75340
G1 X-7.873 Y-35.869 E2.83347
G1 E0.83347 F2400.00000
G92 E0
G1 X-27.725 Y-36.725 F18000.000
G1 E2.00000 F2400.00000
G1 F1800
G1 X-15.811 Y-36.725 E2.72150
G1 X-15.423 Y-34.526 E2.85672
G1 X-14.421 Y-32.790 E2.97811
G1 X-12.886 Y-31.502 E3.09950
G1 X-11.002 Y-30.816 E3.22089
G1 X-8.998 Y-30.816 E3.34228
G1 X-7.114 Y-31.502 E3.46366
G1 X-5.579 Y-32.790 E3.58505
G1 X-4.577 Y-34.526 E3.70644
G1 X-4.189 Y-36.725 E3.84167
G1 X10.189 Y-36.725 E4.71237
G1 X10.577 Y-34.526 E4.84760
G1 X11.579 Y-32.790 E4.96898
G1 X13.114 Y-31.502 E5.09037
G1 X14.998 Y-30.816 E5.21176
G1 X17.002 Y-30.816 E5.33315
G1 X18.886 Y-31.502 E5.45454
G1 X20.421 Y-32.790 E5.57592
G1 X21.423 Y-34.526 E5.69731
G1 X21.811 Y-36.725 E5.83254
G1 X27.725 Y-36.725 E6.19068
G1 X27.725 Y-11.775 E7.70165
G1 X26.592 Y-11.775 E7.77026
G1 X25.160 Y-13.463 E7.90430
G1 X23.351 Y-14.466 E8.02955
G1 X21.305 Y-14.768 E8.15481
G1 X19.284 Y-14.329 E8.28006
G1 X17.548 Y-13.206 E8.40531
G1 X16.319 Y-11.542 E8.53056
G1 X15.755 Y-9.552 E8.65581
G1 X15.929 Y-7.491 E8.78106
G1 X16.819 Y-5.624 E8.90632
G1 X18.742 Y-3.775 E9.06788
G1 X12.725 Y-3.775 E9.43226
G1 X12.725 Y-1.775 E9.55338
G1 X-12.725 Y-1.775 E11.09463
G1 X-12.725 Y-11.775 E11.70023
G1 X-27.725 Y-11.775 E12.60863
G1 X-27.725 Y-36.665 E14.11597
G1 E12.11597 F2400.00000
G92 E0
G1 X-22.191 Y-11.127 F18000.000
G1 E2.00000 F2400.00000
G1 F1800
G1 X-20.809 Y-11.127 E2.08371
G1 X-19.691 Y-10.315 E2.16742
G1 X-19.263 Y-9.000 E2.25113
G1 X-19.691 Y-7.685 E2.33484
G1 X-20.809 Y-6.873 E2.41855
G1 X-22.191 Y-6.873 E2.50226
G1 X-23.309 Y-7.685 E2.58598
G1 X-23.737 Y-9.000 E2.66969
G1 X-23.309 Y-10.315 E2.75340
G1 X-22.240 Y-11.092 E2.83347
G1 E0.83347 F2400.00000
G92 E0
G1 X-17.191 Y-0.127 F18000.000
G1 E2.00000 F2400.00000
G1 F1800
G1 X-15.809 Y-0.127 E2.08371
G1 X-14.691 Y0.685 E2.16742
G1 X-14.263 Y2.000 E2.25113
G1 X-14.691 Y3.315 E2.33484
G1 X-15.809 Y4.127 E2.41855
G1 X-17.191 Y4.127 E2.50226
G1 X-18.309 Y3.315 E2.58598
G1 X-18.737 Y2.000 E2.66969
G1 X-18.309 Y0.685 E2.75340
G1 X-17.240 Y-0.092 E2.83347
G1 E0.83347 F2400.00000
G92 E0
G1 X2.691 Y9.185 F18000.000
G1 E2.00000 F2400.00000
G1 F1800
G1 X3.809 Y8.373 E2.08371
G1 X5.191 Y8.373 E2.16742
G1 X6.309 Y9.185 E2.25113
G1 X6.737 Y10.500 E2.33484
G1 X6.309 Y11.815 E2.41855
G1 X5.191 Y12.627 E2.50227
G1 X3.809 Y12.627 E2.58598
G1 X2.691 Y11.815 E2.66969
G1 X2.263 Y10.500 E2.75340
G1 X2.672 Y9.242 E2.83347
G1 E0.83347 F2400.00000
G92 E0
G1 X2.275 Y15.897 F18000.000
G1 E2.00000 F2400.00000
G1 F1800
G1 X4.790 Y16.263 E2.15390
G1 X6.960 Y15.720 E2.28936
G1 X8.760 Y14.393 E2.42481
G1 X9.920 Y12.481 E2.56027
G1 X10.266 Y10.271 E2.69572
G1 X9.669 Y7.775 E2.85114
G1 X30.725 Y7.775 E4.12627
G1 X30.725 Y14.686 E4.54478
G1 X28.345 Y15.147 E4.69158
G1 X26.502 Y16.338 E4.82449
G1 X25.237 Y18.132 E4.95741
G1 X24.734 Y20.268 E5.09032
G1 X25.090 Y22.608 E5.23368
G1 X9.674 Y35.134 E6.43663
G1 X7.205 Y34.273 E6.59496
G1 X4.775 Y34.494 E6.74273
G1 X2.275 Y35.914 E6.91686
G1 X2.275 Y15.957 E8.12550
G1 E6.12550 F2400.00000
G92 E0
G1 X16.691 Y3.315 F18000.000
G1 E2.00000 F2400.00000
G1 F1800
G1 X16.263 Y2.000 E2.08371
G1 X16.691 Y0.685 E2.16742
G1 X17.809 Y-0.127 E2.25113
G1 X19.191 Y-0.127 E2.33484
G1 X20.309 Y0.685 E2.41855
G1 X20.737 Y2.000 E2.50227
G1 X20.309 Y3.315 E2.58598
G1 X19.191 Y4.127 E2.66969
G1 X17.809 Y4.127 E2.75340
G1 X16.739 Y3.350 E2.83348
G1 E0.83348 F2400.00000
G92 E0
G1 X28.691 Y19.185 F18000.000
G1 E2.00000 F2400.00000
G1 F1800
G1 X29.809 Y18.373 E2.08371
G1 X31.191 Y18.373 E2.16742
G1 X32.309 Y19.185 E2.25113
G1 X32.737 Y20.500 E2.33484
G1 X32.309 Y21.815 E2.41855
G1 X31.191 Y22.627 E2.50226
G1 X29.809 Y22.627 E2.58597
G1 X28.691 Y21.815 E2.66968
G1 X28.263 Y20.500 E2.75340
G1 X28.672 Y19.242 E2.83347
G1 E0.83347 F2400.00000
G92 E0
G1 X27.329 Y25.364 F18000.000
G1 E2.00000 F2400.00000
G1 F1800
G1 X29.551 Y26.192 E2.14362
G1 X31.749 Y26.134 E2.27681
G1 X33.766 Y25.257 E2.40999
G1 X35.725 Y23.267 E2.57909
G1 X35.725 Y44.225 E3.84830
G1 X10.570 Y44.225 E5.37169
G1 X11.876 Y42.100 E5.52277
G1 X12.271 Y40.086 E5.64703
G1 X11.908 Y37.893 E5.78165
G1 X27.282 Y25.401 E6.98128
G1 X27.185 Y25.129 F18000.000
G1 F1800
G1 X27.032 Y25.102 E6.99069
G1 X27.158 Y24.385 E7.03480
G1 X27.517 Y24.448 E7.05685
G1 X27.453 Y24.807 E7.07891
G1 X27.812 Y24.870 E7.10096
G1 X27.875 Y24.511 E7.12301
G1 X28.234 Y24.574 E7.14507
G1 X28.107 Y25.292 E7.18917
G1 X27.749 Y25.229 E7.21123
G1 X28.443 Y25.487 F18000.000
G1 F1800
G1 X28.466 Y25.355 E7.21938
G1 X28.825 Y25.418 E7.24143
G1 X28.790 Y25.617 E7.25366
G1 X29.484 Y25.876 F18000.000
G1 F1800
G1 X29.542 Y25.545 E7.27402
G1 X29.183 Y25.481 E7.29607
G1 X29.247 Y25.123 E7.31812
G1 X29.605 Y25.186 E7.34018
G1 X29.668 Y24.827 E7.36223
G1 X28.951 Y24.701 E7.40634
G1 X28.888 Y25.059 E7.42839
G1 X28.529 Y24.996 E7.45044
G1 X28.719 Y23.920 E7.51660
G1 X29.078 Y23.984 E7.53866
G1 X29.014 Y24.342 E7.56071
G1 X29.732 Y24.469 E7.60482
G1 X29.795 Y24.110 E7.62687
G1 X29.436 Y24.047 E7.64892
G1 X29.500 Y23.688 E7.67098
G1 X29.858 Y23.751 E7.69303
G1 X29.921 Y23.393 E7.71508
G1 X29.204 Y23.266 E7.75919
G1 X29.141 Y23.625 E7.78124
G1 X28.782 Y23.562 E7.80330
G1 X28.909 Y22.844 E7.84740
G1 X29.267 Y22.908 E7.86946
G1 X29.320 Y22.609 E7.88780
G1 X29.207 Y22.527 F18000.000
G1 F1800
G1 X28.972 Y22.486 E7.90224
G1 X28.992 Y22.371 E7.90929
G1 X28.535 Y22.039 F18000.000
G1 F1800
G1 X28.318 Y22.001 E7.92262
G1 X28.369 Y21.710 E7.94053
G1 X28.345 Y21.636 F18000.000
G1 F1800
G1 X27.664 Y21.516 E7.98243
G1 X27.601 Y21.874 E8.00448
G1 X27.959 Y21.938 E8.02654
G1 X27.896 Y22.296 E8.04859
G1 X27.537 Y22.233 E8.07064
G1 X27.474 Y22.592 E8.09270
G1 X28.191 Y22.718 E8.13680
G1 X28.255 Y22.359 E8.15886
G1 X28.613 Y22.423 E8.18091
G1 X28.487 Y23.140 E8.22502
G1 X28.128 Y23.077 E8.24707
G1 X28.065 Y23.435 E8.26913
G1 X28.424 Y23.499 E8.29118
G1 X28.297 Y24.216 E8.33529
G1 X27.939 Y24.153 E8.35734
G1 X28.002 Y23.794 E8.37939
G1 X27.643 Y23.731 E8.40145
G1 X27.580 Y24.089 E8.42350
G1 X27.221 Y24.026 E8.44555
G1 X27.348 Y23.309 E8.48966
G1 X27.706 Y23.372 E8.51171
G1 X27.770 Y23.013 E8.53377
G1 X26.694 Y22.824 E8.59993
G1 X26.631 Y23.182 E8.62198
G1 X26.989 Y23.246 E8.64403
G1 X26.863 Y23.963 E8.68814
G1 X26.504 Y23.900 E8.71019
G1 X26.567 Y23.541 E8.73225
G1 X26.209 Y23.478 E8.75430
G1 X26.145 Y23.836 E8.77635
G1 X25.787 Y23.773 E8.79841
G1 X25.913 Y23.056 E8.84251
G1 X26.272 Y23.119 E8.86457
G1 X26.335 Y22.760 E8.88662
G1 X25.976 Y22.697 E8.90868
G1 X26.103 Y21.980 E8.95278
G1 X26.462 Y22.043 E8.97484
G1 X26.398 Y22.402 E8.99689
G1 X27.116 Y22.528 E9.04100
G1 X27.179 Y22.170 E9.06305
G1 X26.820 Y22.106 E9.08510
G1 X26.883 Y21.748 E9.10716
G1 X27.242 Y21.811 E9.12921
G1 X27.305 Y21.452 E9.15126
G1 X26.588 Y21.326 E9.19537
G1 X26.525 Y21.685 E9.21742
G1 X26.166 Y21.621 E9.23948
G1 X26.229 Y21.263 E9.26153
G1 X25.871 Y21.200 E9.28358
G1 X25.808 Y21.558 E9.30564
G1 X25.449 Y21.495 E9.32769
G1 X25.512 Y21.136 E9.34974
G1 X25.132 Y21.069 E9.37312
G1 X25.016 Y20.309 F18000.000
G1 F1800
G1 X25.280 Y20.356 E9.38933
G1 X25.217 Y20.714 E9.41139
G1 X25.934 Y20.841 E9.45549
G1 X25.997 Y20.482 E9.47755
G1 X25.639 Y20.419 E9.49960
G1 X25.702 Y20.060 E9.52165
G1 X26.061 Y20.124 E9.54371
G1 X26.124 Y19.765 E9.56576
G1 X25.406 Y19.639 E9.60987
G1 X25.343 Y19.997 E9.63192
G1 X25.089 Y19.952 E9.64756
G1 X25.340 Y18.887 F18000.000
G1 F1800
G1 X25.533 Y18.921 E9.65943
G1 X25.470 Y19.280 E9.68149
G1 X26.187 Y19.406 E9.72559
G1 X26.250 Y19.048 E9.74765
G1 X25.892 Y18.985 E9.76970
G1 X25.955 Y18.626 E9.79175
G1 X26.313 Y18.689 E9.81381
G1 X26.377 Y18.330 E9.83586
G1 X25.659 Y18.204 E9.87997
G1 X25.596 Y18.563 E9.90202
G1 X25.424 Y18.532 E9.91263
G1 X26.464 Y16.867 F18000.000
G1 F1800
G1 X26.630 Y16.896 E9.92283
G1 X26.503 Y17.613 E9.96694
G1 X26.145 Y17.550 E9.98899
G1 X26.081 Y17.909 E10.01105
G1 X26.799 Y18.035 E10.05515
G1 X26.862 Y17.676 E10.07721
G1 X27.220 Y17.740 E10.09926
G1 X27.157 Y18.098 E10.12131
G1 X27.874 Y18.225 E10.16542
G1 X27.938 Y17.866 E10.18747
G1 X27.579 Y17.803 E10.20953
G1 X27.642 Y17.444 E10.23158
G1 X28.001 Y17.508 E10.25363
G1 X28.064 Y17.149 E10.27569
G1 X27.347 Y17.022 E10.31979
G1 X27.284 Y17.381 E10.34185
G1 X26.925 Y17.318 E10.36390
G1 X27.051 Y16.601 E10.40801
G1 X27.410 Y16.664 E10.43006
G1 X27.473 Y16.305 E10.45212
G1 X27.146 Y16.247 E10.47227
G1 X27.595 Y15.957 F18000.000
G1 F1800
G1 X27.895 Y16.010 E10.49073
G1 X27.944 Y15.731 E10.50787
G1 X28.044 Y15.666 F18000.000
G1 F1800
G1 X28.317 Y15.714 E10.52464
G1 X28.191 Y16.432 E10.56875
G1 X27.832 Y16.368 E10.59080
G1 X27.769 Y16.727 E10.61286
G1 X28.845 Y16.917 E10.67902
G1 X28.908 Y16.558 E10.70107
G1 X28.549 Y16.495 E10.72313
G1 X28.676 Y15.778 E10.76723
G1 X29.034 Y15.841 E10.78929
G1 X28.971 Y16.200 E10.81134
G1 X29.330 Y16.263 E10.83339
G1 X29.393 Y15.904 E10.85545
G1 X29.752 Y15.967 E10.87750
G1 X29.625 Y16.685 E10.92161
G1 X29.266 Y16.621 E10.94366
G1 X29.203 Y16.980 E10.96571
G1 X29.562 Y17.043 E10.98777
G1 X29.435 Y17.760 E11.03187
G1 X29.077 Y17.697 E11.05393
G1 X29.140 Y17.339 E11.07598
G1 X28.423 Y17.212 E11.12009
G1 X28.360 Y17.571 E11.14214
G1 X28.718 Y17.634 E11.16419
G1 X28.655 Y17.993 E11.18625
G1 X28.296 Y17.929 E11.20830
G1 X28.233 Y18.288 E11.23035
G1 X28.950 Y18.415 E11.27446
G1 X29.014 Y18.056 E11.29651
G1 X29.372 Y18.119 E11.31857
G1 X29.325 Y18.387 E11.33504
G1 X29.745 Y18.100 F18000.000
G1 F1800
G1 X29.857 Y17.465 E11.37407
G1 X30.216 Y17.528 E11.39612
G1 X30.153 Y17.887 E11.41817
G1 X30.511 Y17.950 E11.44023
G1 X30.575 Y17.592 E11.46228
G1 X30.933 Y17.655 E11.48433
G1 X30.855 Y18.100 E11.51170
G1 X31.886 Y18.540 F18000.000
G1 F1800
G1 X31.946 Y18.203 E11.53244
G1 X32.304 Y18.266 E11.55449
G1 X32.368 Y17.908 E11.57654
G1 X31.650 Y17.781 E11.62065
G1 X31.587 Y18.140 E11.64271
G1 X31.229 Y18.077 E11.66476
G1 X31.418 Y17.001 E11.73092
G1 X31.777 Y17.064 E11.75297
G1 X31.714 Y17.423 E11.77503
G1 X32.431 Y17.549 E11.81913
G1 X32.494 Y17.190 E11.84119
G1 X32.136 Y17.127 E11.86324
G1 X32.199 Y16.769 E11.88529
G1 X32.557 Y16.832 E11.90735
G1 X32.621 Y16.473 E11.92940
G1 X31.903 Y16.347 E11.97351
G1 X31.840 Y16.705 E11.99556
G1 X31.481 Y16.642 E12.01761
G1 X31.545 Y16.284 E12.03967
G1 X30.827 Y16.157 E12.08377
G1 X30.764 Y16.516 E12.10583
G1 X31.123 Y16.579 E12.12788
G1 X30.996 Y17.296 E12.17199
G1 X30.638 Y17.233 E12.19404
G1 X30.701 Y16.874 E12.21609
G1 X30.342 Y16.811 E12.23815
G1 X30.279 Y17.170 E12.26020
G1 X29.921 Y17.106 E12.28225
G1 X30.047 Y16.389 E12.32636
G1 X30.406 Y16.452 E12.34842
G1 X30.469 Y16.094 E12.37047
G1 X30.110 Y16.031 E12.39252
G1 X30.237 Y15.313 E12.43663
G1 X30.595 Y15.377 E12.45868
G1 X30.532 Y15.735 E12.48074
G1 X31.249 Y15.862 E12.52484
G1 X31.313 Y15.503 E12.54690
G1 X30.954 Y15.440 E12.56895
G1 X31.017 Y15.081 E12.59100
G1 X31.376 Y15.144 E12.61306
G1 X31.439 Y14.786 E12.63511
G1 X30.998 Y14.708 E12.66223
G1 X30.666 Y14.975 F18000.000
G1 F1800
G1 X30.659 Y15.018 E12.66485
G1 X30.547 Y14.998 E12.67172
G1 X29.900 Y15.123 F18000.000
G1 F1800
