; generated by Slic3r Prusa Edition 1.40.0-beta+win64 on 2024-10-30 at 15:11:41

; 

; external perimeters extrusion width = 0.45mm
; perimeters extrusion width = 0.45mm
; infill extrusion width = 0.45mm
; solid infill extrusion width = 0.45mm
; top infill extrusion width = 0.40mm

M107
M104 S200 ; set temperature
G28 ; home all axes
G1 Z5 F8000 ; lift nozzle
; Filament gcode
M109 S200 ; set temperature and wait for it to be reached
G21 ; set units to millimeters
G90 ; use absolute coordinates
M82 ; use absolute distances for extrusion
G92 E0
G1 Z0.400 F18000.000
G1 E-2.00000 F2400.00000
G92 E0
G1 X22.032 Y23.521 F18000.000
G1 E2.00000 F2400.00000
G1 F1800
G1 X20.065 Y24.108 E2.12434
G1 X19.560 Y24.181 E2.15521
G1 X-19.551 Y24.181 E4.52380
G1 X-21.680 Y23.671 E4.65638
G1 X-22.444 Y23.234 E4.70972
G1 X-23.699 Y21.982 E4.81704
G1 X-24.021 Y21.532 E4.85054
G1 X-24.608 Y19.565 E4.97488
G1 X-24.681 Y19.064 E5.00553
G1 X-24.681 Y-19.051 E7.31377
G1 X-24.171 Y-21.180 E7.44636
G1 X-23.734 Y-21.944 E7.49969
G1 X-22.485 Y-23.197 E7.60679
G1 X-22.042 Y-23.515 E7.63986
G1 X-21.576 Y-23.703 E7.67029
G1 X-19.611 Y-24.179 E7.79269
G1 X19.504 Y-24.182 E10.16149
G1 X19.999 Y-24.124 E10.19170
G1 X21.694 Y-23.667 E10.29801
G1 X22.130 Y-23.465 E10.32713
G1 X22.514 Y-23.169 E10.35646
G1 X23.702 Y-21.980 E10.45825
G1 X24.015 Y-21.542 E10.49088
G1 X24.199 Y-21.090 E10.52043
G1 X24.673 Y-19.199 E10.63849
G1 X24.681 Y19.051 E12.95490
G1 X24.171 Y21.180 E13.08748
G1 X23.734 Y21.944 E13.14082
G1 X22.482 Y23.199 E13.24813
G1 X22.081 Y23.486 E13.27800
G1 E11.27800 F2400.00000
G92 E0
G1 X-10.725 Y-20.122 F18000.000
G1 E2.00000 F2400.00000
G1 F1800
G1 X-13.308 Y-21.613 E2.18063
G1 X-13.265 Y-21.775 E2.19078
G1 X-10.725 Y-21.775 E2.34458
G1 X-10.725 Y-20.182 E2.44106
G1 E0.44106 F2400.00000
G92 E0
G1 X-13.692 Y-21.613 F18000.000
G1 E2.00000 F2400.00000
G1 F1800
G1 X-16.725 Y-19.862 E2.21209
G1 X-16.725 Y-16.138 E2.43761
G1 X-13.500 Y-14.276 E2.66313
G1 X-10.725 Y-15.878 E2.85718
G1 X-10.725 Y-12.775 E3.04512
G1 X10.725 Y-12.775 E4.34413
G1 X10.725 Y-21.775 E4.88917
G1 X19.470 Y-21.775 E5.41879
G1 X20.884 Y-21.396 E5.50739
G1 X21.896 Y-20.384 E5.59413
G1 X22.275 Y-18.970 E5.68273
G1 X22.275 Y18.970 E7.98042
G1 X21.896 Y20.384 E8.06902
G1 X20.884 Y21.396 E8.15576
G1 X19.470 Y21.775 E8.24436
G1 X-19.470 Y21.775 E10.60261
G1 X-20.884 Y21.396 E10.69121
G1 X-21.896 Y20.384 E10.77795
G1 X-22.275 Y18.970 E10.86655
G1 X-22.275 Y-18.970 E13.16424
G1 X-21.896 Y-20.384 E13.25284
G1 X-20.884 Y-21.396 E13.33958
G1 X-19.470 Y-21.775 E13.42818
G1 X-13.735 Y-21.775 E13.77549
G1 X-13.708 Y-21.671 E13.78201
G1 E11.78201 F2400.00000
G92 E0
G1 X10.691 Y10.685 F18000.000
G1 E2.00000 F2400.00000
G1 F1800
G1 X11.809 Y9.873 E2.08371
G1 X13.191 Y9.873 E2.16742
G1 X13.317 Y9.964 E2.17684
G1 X14.309 Y10.685 E2.25113
G1 X14.737 Y12.000 E2.33484
G1 X14.309 Y13.315 E2.41855
G1 X13.191 Y14.127 E2.50227
G1 X11.809 Y14.127 E2.58598
G1 X10.691 Y13.315 E2.66969
G1 X10.263 Y12.000 E2.75340
G1 X10.672 Y10.742 E2.83348
G1 E0.83348 F2400.00000
G92 E0
G1 X13.809 Y-15.373 F18000.000
G1 E2.00000 F2400.00000
G1 F1800
G1 X12.691 Y-16.185 E2.08371
G1 X12.263 Y-17.500 E2.16742
G1 X12.691 Y-18.815 E2.25113
G1 X13.809 Y-19.627 E2.33484
G1 X15.191 Y-19.627 E2.41855
G1 X16.309 Y-18.815 E2.50227
G1 X16.737 Y-17.500 E2.58598
G1 X16.309 Y-16.185 E2.66969
G1 X15.191 Y-15.373 E2.75340
G1 X13.869 Y-15.373 E2.83348
G1 E0.83348 F2400.00000
G92 E0
G1 X15.116 Y-8.800 F18000.000
G1 E2.00000 F2400.00000
G1 F1800
G1 X16.300 Y-7.616 E2.10135
G1 X16.725 Y-6.030 E2.20084
G1 X16.725 Y3.087 E2.75297
G1 X16.239 Y4.776 E2.85935
G1 X14.905 Y5.969 E2.96774
G1 X13.185 Y6.262 E3.07342
G1 X11.958 Y6.252 E3.14773
G1 X10.758 Y6.491 E3.22180
G1 X9.230 Y6.573 E3.31448
G1 X7.833 Y5.921 E3.40786
G1 X-4.642 Y-4.215 E4.38132
G1 X-5.458 Y-5.217 E4.45957
G1 X-5.822 Y-6.515 E4.54120
G1 X-5.227 Y-7.917 E4.63344
G1 X-4.083 Y-8.884 E4.72414
G1 X-2.652 Y-9.225 E4.81320
G1 X13.530 Y-9.225 E5.79318
G1 X15.059 Y-8.815 E5.88904
G1 E3.88904 F2400.00000
G92 E0
G1 X-9.263 Y-7.500 F18000.000
G1 E2.00000 F2400.00000
G1 F1800
G1 X-9.691 Y-6.185 E2.08371
G1 X-10.809 Y-5.373 E2.16742
G1 X-12.191 Y-5.373 E2.25113
G1 X-13.309 Y-6.185 E2.33484
G1 X-13.737 Y-7.500 E2.41855
G1 X-13.309 Y-8.815 E2.50227
G1 X-12.191 Y-9.627 E2.58598
G1 X-10.809 Y-9.627 E2.66969
G1 X-9.691 Y-8.815 E2.75340
G1 X-9.282 Y-7.557 E2.83348
G1 E0.83348 F2400.00000
G92 E0
G1 X-14.683 Y-1.737 F18000.000
G1 E2.00000 F2400.00000
G1 F1800
G1 X-12.831 Y-1.876 E2.11244
G1 X-11.283 Y-1.731 E2.20664
G1 X-9.755 Y-1.991 E2.30047
G1 X-8.230 Y-2.073 E2.39296
G1 X-6.833 Y-1.421 E2.48634
G1 X5.594 Y8.676 E3.45604
G1 X6.519 Y9.910 E3.54942
G1 X6.752 Y11.429 E3.64245
G1 X6.726 Y12.052 E3.68024
G1 X6.763 Y12.679 E3.71827
G1 X6.469 Y14.405 E3.82431
G1 X5.276 Y15.739 E3.93269
G1 X3.587 Y16.225 E4.03908
G1 X-13.530 Y16.225 E5.07569
G1 X-15.116 Y15.800 E5.17518
G1 X-16.300 Y14.616 E5.27653
G1 X-16.725 Y13.030 E5.37602
G1 X-16.725 Y1.241 E6.08993
G1 X-16.173 Y-0.547 E6.20327
G1 X-14.730 Y-1.699 E6.31513
G1 X-14.840 Y-1.960 F18000.000
G1 F1800
G1 X-15.053 Y-1.998 E6.32823
G1 X-15.096 Y-1.756 E6.34307
G1 X-15.220 Y-1.657 F18000.000
G1 F1800
G1 X-15.475 Y-1.702 E6.35877
G1 X-15.412 Y-2.061 E6.38082
G1 X-15.771 Y-2.124 E6.40288
G1 X-15.897 Y-1.407 E6.44698
G1 X-15.600 Y-1.355 E6.46528
G1 X-15.979 Y-1.052 F18000.000
G1 F1800
G1 X-16.678 Y-1.175 E6.50822
G1 X-16.614 Y-1.533 E6.53027
G1 X-16.256 Y-1.470 E6.55233
G1 X-16.129 Y-2.187 E6.59643
G1 X-16.488 Y-2.251 E6.61849
G1 X-16.551 Y-1.892 E6.64054
G1 X-16.910 Y-1.955 E6.66259
G1 X-16.846 Y-2.314 E6.68465
G1 X-17.205 Y-2.377 E6.70670
G1 X-17.332 Y-1.660 E6.75081
G1 X-16.973 Y-1.597 E6.77286
G1 X-17.036 Y-1.238 E6.79491
G1 X-17.395 Y-1.301 E6.81697
G1 X-17.521 Y-0.584 E6.86107
G1 X-17.163 Y-0.521 E6.88313
G1 X-17.099 Y-0.879 E6.90518
G1 X-16.382 Y-0.753 E6.94929
G1 X-16.387 Y-0.727 E6.95091
G1 X-16.503 Y-0.405 F18000.000
G1 F1800
G1 X-16.804 Y-0.458 E6.96941
G1 X-16.867 Y-0.099 E6.99146
G1 X-16.611 Y-0.054 E7.00719
G1 X-16.720 Y0.297 F18000.000
G1 F1800
G1 X-17.289 Y0.196 E7.04221
G1 X-17.226 Y-0.162 E7.06426
G1 X-17.584 Y-0.225 E7.08632
G1 X-17.648 Y0.133 E7.10837
G1 X-18.365 Y0.007 E7.15248
G1 X-18.302 Y-0.352 E7.17453
G1 X-17.943 Y-0.289 E7.19658
G1 X-17.817 Y-1.006 E7.24069
G1 X-18.175 Y-1.069 E7.26275
G1 X-18.239 Y-0.710 E7.28480
G1 X-18.597 Y-0.774 E7.30685
G1 X-18.534 Y-1.132 E7.32891
G1 X-18.893 Y-1.196 E7.35096
G1 X-19.019 Y-0.478 E7.39507
G1 X-18.660 Y-0.415 E7.41712
G1 X-18.724 Y-0.056 E7.43917
G1 X-19.441 Y-0.183 E7.48328
G1 X-19.378 Y-0.542 E7.50533
G1 X-19.736 Y-0.605 E7.52739
G1 X-19.799 Y-0.246 E7.54944
G1 X-20.517 Y-0.373 E7.59355
G1 X-20.454 Y-0.731 E7.61560
G1 X-20.095 Y-0.668 E7.63765
G1 X-20.032 Y-1.027 E7.65971
G1 X-20.390 Y-1.090 E7.68176
G1 X-20.327 Y-1.449 E7.70381
G1 X-19.610 Y-1.322 E7.74792
G1 X-19.673 Y-0.963 E7.76997
G1 X-19.314 Y-0.900 E7.79203
G1 X-19.125 Y-1.976 E7.85819
G1 X-19.483 Y-2.039 E7.88024
G1 X-19.547 Y-1.681 E7.90230
G1 X-20.264 Y-1.807 E7.94640
G1 X-20.201 Y-2.166 E7.96846
G1 X-19.842 Y-2.103 E7.99051
G1 X-19.779 Y-2.461 E8.01256
G1 X-20.137 Y-2.524 E8.03462
G1 X-20.074 Y-2.883 E8.05667
G1 X-19.357 Y-2.757 E8.10078
G1 X-19.420 Y-2.398 E8.12283
G1 X-19.061 Y-2.335 E8.14488
G1 X-18.998 Y-2.693 E8.16694
G1 X-18.281 Y-2.567 E8.21104
G1 X-18.344 Y-2.208 E8.23310
G1 X-18.703 Y-2.271 E8.25515
G1 X-18.829 Y-1.554 E8.29926
G1 X-18.471 Y-1.491 E8.32131
G1 X-18.407 Y-1.850 E8.34336
G1 X-18.049 Y-1.786 E8.36542
G1 X-18.112 Y-1.428 E8.38747
G1 X-17.753 Y-1.365 E8.40952
G1 X-17.627 Y-2.082 E8.45363
G1 X-17.986 Y-2.145 E8.47568
G1 X-17.922 Y-2.504 E8.49774
G1 X-17.564 Y-2.440 E8.51979
G1 X-17.500 Y-2.799 E8.54184
G1 X-17.859 Y-2.862 E8.56390
G1 X-17.796 Y-3.221 E8.58595
G1 X-17.437 Y-3.158 E8.60801
G1 X-17.311 Y-3.875 E8.65211
G1 X-17.669 Y-3.938 E8.67417
G1 X-17.733 Y-3.580 E8.69622
G1 X-18.091 Y-3.643 E8.71827
G1 X-18.028 Y-4.001 E8.74033
G1 X-18.387 Y-4.065 E8.76238
G1 X-18.513 Y-3.347 E8.80649
G1 X-18.154 Y-3.284 E8.82854
G1 X-18.218 Y-2.925 E8.85059
G1 X-18.935 Y-3.052 E8.89470
G1 X-18.872 Y-3.411 E8.91675
G1 X-19.230 Y-3.474 E8.93881
G1 X-19.294 Y-3.115 E8.96086
G1 X-20.011 Y-3.242 E9.00497
G1 X-19.948 Y-3.600 E9.02702
G1 X-19.589 Y-3.537 E9.04907
G1 X-19.526 Y-3.896 E9.07113
G1 X-19.884 Y-3.959 E9.09318
G1 X-19.821 Y-4.318 E9.11523
G1 X-19.104 Y-4.191 E9.15934
G1 X-19.167 Y-3.832 E9.18139
G1 X-18.809 Y-3.769 E9.20345
G1 X-18.619 Y-4.845 E9.26961
G1 X-18.977 Y-4.908 E9.29166
G1 X-19.041 Y-4.550 E9.31372
G1 X-19.758 Y-4.676 E9.35782
G1 X-19.695 Y-5.035 E9.37988
G1 X-19.336 Y-4.972 E9.40193
G1 X-19.273 Y-5.330 E9.42398
G1 X-19.631 Y-5.393 E9.44604
G1 X-19.568 Y-5.752 E9.46809
G1 X-18.851 Y-5.626 E9.51220
G1 X-18.914 Y-5.267 E9.53425
G1 X-18.556 Y-5.204 E9.55630
G1 X-18.492 Y-5.562 E9.57836
G1 X-17.775 Y-5.436 E9.62246
G1 X-17.838 Y-5.077 E9.64452
G1 X-18.197 Y-5.140 E9.66657
G1 X-18.323 Y-4.423 E9.71068
G1 X-17.965 Y-4.360 E9.73273
G1 X-17.902 Y-4.719 E9.75478
G1 X-17.543 Y-4.655 E9.77684
G1 X-17.606 Y-4.297 E9.79889
G1 X-17.248 Y-4.234 E9.82094
G1 X-17.121 Y-4.951 E9.86505
G1 X-17.480 Y-5.014 E9.88711
G1 X-17.416 Y-5.373 E9.90916
G1 X-16.699 Y-5.246 E9.95327
G1 X-16.762 Y-4.888 E9.97532
G1 X-16.404 Y-4.824 E9.99737
G1 X-16.341 Y-5.183 E10.01943
G1 X-15.623 Y-5.056 E10.06353
G1 X-15.687 Y-4.698 E10.08559
G1 X-16.045 Y-4.761 E10.10764
G1 X-16.108 Y-4.402 E10.12969
G1 X-15.750 Y-4.339 E10.15175
G1 X-15.813 Y-3.981 E10.17380
G1 X-16.530 Y-4.107 E10.21791
G1 X-16.467 Y-4.466 E10.23996
G1 X-16.826 Y-4.529 E10.26201
G1 X-16.952 Y-3.812 E10.30612
G1 X-16.594 Y-3.748 E10.32817
G1 X-16.657 Y-3.390 E10.35023
G1 X-17.015 Y-3.453 E10.37228
G1 X-17.142 Y-2.736 E10.41639
G1 X-16.783 Y-2.673 E10.43844
G1 X-16.720 Y-3.031 E10.46049
G1 X-16.361 Y-2.968 E10.48255
G1 X-16.425 Y-2.609 E10.50460
G1 X-16.066 Y-2.546 E10.52666
G1 X-15.939 Y-3.263 E10.57076
G1 X-16.298 Y-3.327 E10.59282
G1 X-16.235 Y-3.685 E10.61487
G1 X-15.876 Y-3.622 E10.63692
G1 X-15.159 Y-3.495 E10.68103
G1 X-15.222 Y-3.137 E10.70308
G1 X-15.581 Y-3.200 E10.72514
G1 X-15.707 Y-2.483 E10.76924
G1 X-15.349 Y-2.420 E10.79130
G1 X-15.285 Y-2.778 E10.81335
G1 X-14.927 Y-2.715 E10.83540
G1 X-14.990 Y-2.356 E10.85746
G1 X-14.631 Y-2.293 E10.87951
G1 X-14.505 Y-3.010 E10.92362
G1 X-14.864 Y-3.074 E10.94567
G1 X-14.800 Y-3.432 E10.96772
G1 X-14.442 Y-3.369 E10.98978
G1 X-14.315 Y-4.086 E11.03388
G1 X-14.674 Y-4.149 E11.05594
G1 X-14.737 Y-3.791 E11.07799
G1 X-15.454 Y-3.917 E11.12210
G1 X-15.391 Y-4.276 E11.14415
G1 X-15.033 Y-4.213 E11.16620
G1 X-14.969 Y-4.571 E11.18826
G1 X-15.328 Y-4.635 E11.21031
G1 X-15.265 Y-4.993 E11.23237
G1 X-14.547 Y-4.867 E11.27647
G1 X-14.611 Y-4.508 E11.29853
G1 X-14.252 Y-4.445 E11.32058
G1 X-14.189 Y-4.804 E11.34263
G1 X-13.472 Y-4.677 E11.38674
G1 X-13.535 Y-4.318 E11.40879
G1 X-13.893 Y-4.382 E11.43085
G1 X-14.020 Y-3.664 E11.47495
G1 X-13.661 Y-3.601 E11.49701
G1 X-13.598 Y-3.960 E11.51906
G1 X-13.239 Y-3.897 E11.54111
G1 X-13.303 Y-3.538 E11.56317
G1 X-12.944 Y-3.475 E11.58522
G1 X-12.881 Y-3.833 E11.60727
G1 X-12.818 Y-4.192 E11.62933
G1 X-13.176 Y-4.255 E11.65138
G1 X-13.113 Y-4.614 E11.67343
G1 X-12.396 Y-4.487 E11.71754
G1 X-12.459 Y-4.129 E11.73959
G1 X-12.100 Y-4.065 E11.76165
G1 X-12.037 Y-4.424 E11.78370
G1 X-11.320 Y-4.298 E11.82781
G1 X-11.383 Y-3.939 E11.84986
G1 X-11.742 Y-4.002 E11.87192
G1 X-11.805 Y-3.644 E11.89397
G1 X-11.446 Y-3.580 E11.91602
G1 X-11.510 Y-3.222 E11.93808
G1 X-12.227 Y-3.348 E11.98218
G1 X-12.164 Y-3.707 E12.00424
G1 X-12.522 Y-3.770 E12.02629
G1 X-12.712 Y-2.694 E12.09245
G1 X-12.353 Y-2.631 E12.11450
G1 X-12.290 Y-2.990 E12.13656
G1 X-11.573 Y-2.863 E12.18066
G1 X-11.636 Y-2.504 E12.20272
G1 X-11.995 Y-2.568 E12.22477
G1 X-12.058 Y-2.209 E12.24682
G1 X-11.699 Y-2.146 E12.26888
G1 X-11.717 Y-2.046 E12.27502
G1 X-11.353 Y-2.012 F18000.000
G1 F1800
G1 X-11.341 Y-2.083 E12.27937
G1 X-11.097 Y-2.040 E12.29436
G1 X-10.975 Y-2.060 F18000.000
G1 F1800
G1 X-10.919 Y-2.378 E12.31389
G1 X-11.277 Y-2.441 E12.33594
G1 X-11.214 Y-2.800 E12.35800
G1 X-10.497 Y-2.673 E12.40210
G1 X-10.560 Y-2.315 E12.42416
G1 X-10.201 Y-2.252 E12.44621
G1 X-10.012 Y-3.327 E12.51237
G1 X-10.370 Y-3.391 E12.53442
G1 X-10.434 Y-3.032 E12.55648
G1 X-11.151 Y-3.159 E12.60058
G1 X-11.088 Y-3.517 E12.62264
G1 X-10.729 Y-3.454 E12.64469
G1 X-10.666 Y-3.813 E12.66674
G1 X-11.024 Y-3.876 E12.68880
G1 X-10.961 Y-4.234 E12.71085
G1 X-10.244 Y-4.108 E12.75496
G1 X-10.307 Y-3.749 E12.77701
G1 X-9.949 Y-3.686 E12.79906
G1 X-9.885 Y-4.045 E12.82112
G1 X-9.168 Y-3.918 E12.86522
G1 X-9.231 Y-3.560 E12.88728
G1 X-9.590 Y-3.623 E12.90933
G1 X-9.716 Y-2.906 E12.95344
G1 X-9.358 Y-2.842 E12.97549
G1 X-9.295 Y-3.201 E12.99755
G1 X-8.936 Y-3.138 E13.01960
G1 X-8.999 Y-2.779 E13.04165
G1 X-8.640 Y-2.716 E13.06371
G1 X-8.514 Y-3.433 E13.10781
G1 X-8.873 Y-3.496 E13.12987
G1 X-8.809 Y-3.855 E13.15192
G1 X-8.092 Y-3.729 E13.19603
G1 X-8.155 Y-3.370 E13.21808
G1 X-7.797 Y-3.307 E13.24013
G1 X-7.734 Y-3.665 E13.26219
G1 X-7.016 Y-3.539 E13.30629
G1 X-7.080 Y-3.180 E13.32835
G1 X-7.438 Y-3.243 E13.35040
G1 X-7.501 Y-2.885 E13.37245
G1 X-7.143 Y-2.822 E13.39451
G1 X-7.206 Y-2.463 E13.41656
G1 X-7.923 Y-2.589 E13.46067
G1 X-7.860 Y-2.948 E13.48272
G1 X-8.219 Y-3.011 E13.50477
G1 X-8.337 Y-2.341 E13.54598
G1 X-8.710 Y-2.321 F18000.000
G1 F1800
G1 X-8.704 Y-2.357 E13.54821
G1 X-9.062 Y-2.420 E13.57027
G1 X-9.083 Y-2.301 E13.57763
G1 X-9.457 Y-2.281 F18000.000
G1 F1800
G1 X-9.421 Y-2.484 E13.59012
G1 X-9.780 Y-2.547 E13.61217
G1 X-9.831 Y-2.255 E13.63012
G1 E11.63012 F2400.00000
G92 E0
G1 X-7.640 Y-2.099 F18000.000
G1 E2.00000 F2400.00000
G1 F1800
G1 X-7.628 Y-2.168 E2.00420
G1 X-6.552 Y-1.978 E2.07036
G1 X-6.615 Y-1.619 E2.09242
G1 X-6.652 Y-1.626 E2.09466
G1 X-5.972 Y-1.073 F18000.000
G1 F1800
G1 X-5.898 Y-1.493 E2.12046
G1 X-6.257 Y-1.556 E2.14251
G1 X-6.193 Y-1.915 E2.16456
G1 X-5.835 Y-1.851 E2.18662
G1 X-5.708 Y-2.569 E2.23072
G1 X-6.067 Y-2.632 E2.25278
G1 X-6.130 Y-2.273 E2.27483
G1 X-6.847 Y-2.400 E2.31894
G1 X-6.784 Y-2.758 E2.34099
G1 X-6.425 Y-2.695 E2.36305
G1 X-6.362 Y-3.054 E2.38510
G1 X-6.721 Y-3.117 E2.40715
G1 X-6.658 Y-3.476 E2.42921
G1 X-5.940 Y-3.349 E2.47331
G1 X-6.004 Y-2.990 E2.49537
G1 X-5.645 Y-2.927 E2.51742
G1 X-5.582 Y-3.286 E2.53947
G1 X-4.865 Y-3.159 E2.58358
G1 X-4.928 Y-2.801 E2.60563
G1 X-5.286 Y-2.864 E2.62769
G1 X-5.413 Y-2.147 E2.67179
G1 X-5.054 Y-2.084 E2.69385
G1 X-4.991 Y-2.442 E2.71590
G1 X-4.632 Y-2.379 E2.73795
G1 X-4.696 Y-2.020 E2.76001
G1 X-4.337 Y-1.957 E2.78206
G1 X-4.211 Y-2.674 E2.82617
G1 X-4.569 Y-2.738 E2.84822
G1 X-4.506 Y-3.096 E2.87027
G1 X-3.789 Y-2.970 E2.91438
G1 X-3.852 Y-2.611 E2.93643
G1 X-3.493 Y-2.548 E2.95849
G1 X-3.434 Y-2.882 E2.97903
G1 X-2.893 Y-2.442 F18000.000
G1 F1800
G1 X-3.135 Y-2.485 E2.99388
G1 X-3.198 Y-2.126 E3.01594
G1 X-2.839 Y-2.063 E3.03799
G1 X-2.902 Y-1.704 E3.06004
G1 X-3.620 Y-1.831 E3.10415
G1 X-3.556 Y-2.189 E3.12620
G1 X-3.915 Y-2.252 E3.14826
G1 X-4.105 Y-1.177 E3.21442
G1 X-3.746 Y-1.113 E3.23647
G1 X-3.683 Y-1.472 E3.25853
G1 X-2.966 Y-1.345 E3.30263
G1 X-3.029 Y-0.987 E3.32469
G1 X-3.388 Y-1.050 E3.34674
G1 X-3.451 Y-0.691 E3.36879
G1 X-3.092 Y-0.628 E3.39085
G1 X-3.155 Y-0.270 E3.41290
G1 X-3.873 Y-0.396 E3.45701
G1 X-3.809 Y-0.755 E3.47906
G1 X-4.168 Y-0.818 E3.50111
G1 X-4.231 Y-0.459 E3.52317
G1 X-4.949 Y-0.586 E3.56727
G1 X-4.885 Y-0.944 E3.58933
G1 X-4.527 Y-0.881 E3.61138
G1 X-4.400 Y-1.598 E3.65549
G1 X-4.759 Y-1.662 E3.67754
G1 X-4.822 Y-1.303 E3.69959
G1 X-5.181 Y-1.366 E3.72165
G1 X-5.117 Y-1.725 E3.74370
