; generated by Slic3r Prusa Edition 1.40.0-beta+win64 on 2024-10-30 at 12:56:01

; 

; external perimeters extrusion width = 0.45mm
; perimeters extrusion width = 0.45mm
; infill extrusion width = 0.45mm
; solid infill extrusion width = 0.45mm
; top infill extrusion width = 0.40mm

M107
M104 S200 ; set temperature
G28 ; home all axes
G1 Z5 F8000 ; lift nozzle
; Filament gcode
M109 S200 ; set temperature and wait for it to be reached
G21 ; set units to millimeters
G90 ; use absolute coordinates
M82 ; use absolute distances for extrusion
G92 E0
G1 Z0.400 F18000.000
G1 E-2.00000 F2400.00000
G92 E0
G1 X-14.914 Y38.210 F18000.000
G1 E2.00000 F2400.00000
G1 F1800
G1 X-15.193 Y37.611 E2.04007
G1 X-15.681 Y35.575 E2.16684
G1 X-15.682 Y-35.515 E6.47202
G1 X-15.625 Y-35.996 E6.50136
G1 X-15.196 Y-37.600 E6.60193
G1 X-14.758 Y-38.417 E6.65808
G1 X-13.241 Y-39.893 E6.78626
G1 X-12.649 Y-40.181 E6.82611
G1 X-10.760 Y-40.666 E6.94421
G1 X10.504 Y-40.682 E8.23196
G1 X10.999 Y-40.624 E8.26217
G1 X12.701 Y-40.165 E8.36892
G1 X13.140 Y-39.959 E8.39826
G1 X13.525 Y-39.659 E8.42781
G1 X14.704 Y-38.477 E8.52894
G1 X15.022 Y-38.029 E8.56222
G1 X15.203 Y-37.576 E8.59178
G1 X15.678 Y-35.630 E8.71309
G1 X15.682 Y35.515 E13.02158
G1 X15.625 Y35.996 E13.05091
G1 X15.196 Y37.600 E13.15148
G1 X14.758 Y38.417 E13.20763
G1 X13.232 Y39.899 E13.33647
G1 X12.639 Y40.185 E13.37632
G1 X10.702 Y40.673 E13.49725
G1 X-10.544 Y40.682 E14.78392
G1 X-12.600 Y40.196 E14.91187
G1 X-13.035 Y40.019 E14.94032
G1 X-13.422 Y39.753 E14.96878
G1 X-14.872 Y38.254 E15.09507
G1 E13.09507 F2400.00000
G92 E0
G1 X-12.896 Y-36.884 F18000.000
G1 E2.00000 F2400.00000
G1 F1800
G1 X-11.884 Y-37.896 E2.08674
G1 X-10.470 Y-38.275 E2.17534
G1 X10.485 Y-38.271 E3.44438
G1 X11.884 Y-37.896 E3.53208
G1 X12.896 Y-36.884 E3.61882
G1 X13.275 Y-35.470 E3.70742
G1 X13.275 Y35.470 E8.00359
G1 X12.896 Y36.884 E8.09219
G1 X11.884 Y37.896 E8.17893
G1 X10.470 Y38.275 E8.26753
G1 X-10.470 Y38.275 E9.53570
G1 X-11.884 Y37.896 E9.62430
G1 X-12.896 Y36.884 E9.71104
G1 X-13.275 Y35.470 E9.79964
G1 X-13.275 Y-35.470 E14.09581
G1 X-12.912 Y-36.826 E14.18078
G1 E12.18078 F2400.00000
G92 E0
G1 X-8.001 Y-33.866 F18000.000
G1 E2.00000 F2400.00000
G1 F1800
G1 X-7.366 Y-34.501 E2.05432
G1 X-6.530 Y-34.725 E2.10679
G1 X6.530 Y-34.725 E2.89766
G1 X7.366 Y-34.501 E2.95013
G1 X8.001 Y-33.866 E3.00445
G1 X8.225 Y-33.030 E3.05692
G1 X8.225 Y-20.970 E3.78722
G1 X8.001 Y-20.134 E3.83969
G1 X7.366 Y-19.499 E3.89402
G1 X6.530 Y-19.275 E3.94648
G1 X-6.545 Y-19.275 E4.73831
G1 X-7.741 Y-19.778 E4.81689
G1 X-8.225 Y-20.956 E4.89397
G1 X-8.225 Y-33.030 E5.62517
G1 X-8.016 Y-33.809 E5.67400
G1 E3.67400 F2400.00000
G92 E0
G1 X-0.691 Y-15.127 F18000.000
G1 E2.00000 F2400.00000
G1 F1800
G1 X0.691 Y-15.127 E2.08371
G1 X1.809 Y-14.315 E2.16742
G1 X2.237 Y-13.000 E2.25113
G1 X1.809 Y-11.685 E2.33484
G1 X0.691 Y-10.873 E2.41855
G1 X-0.691 Y-10.873 E2.50226
G1 X-1.809 Y-11.685 E2.58598
G1 X-2.237 Y-13.000 E2.66969
G1 X-1.809 Y-14.315 E2.75340
G1 X-0.740 Y-15.092 E2.83347
G1 E0.83347 F2400.00000
G92 E0
G1 X-7.722 Y-7.116 F18000.000
G1 E2.00000 F2400.00000
G1 F1800
G1 X-6.544 Y-7.600 E2.07707
G1 X6.545 Y-7.600 E2.86979
G1 X7.741 Y-7.097 E2.94838
G1 X8.225 Y-5.919 E3.02545
G1 X8.225 Y6.030 E3.74909
G1 X8.001 Y6.866 E3.80155
G1 X7.366 Y7.501 E3.85588
G1 X6.530 Y7.725 E3.90834
G1 X-6.530 Y7.725 E4.69921
G1 X-7.366 Y7.501 E4.75168
G1 X-8.001 Y6.866 E4.80600
G1 X-8.225 Y6.030 E4.85847
G1 X-8.225 Y-5.920 E5.58216
G1 X-7.745 Y-7.061 E5.65711
G1 E3.65711 F2400.00000
G92 E0
G1 X-0.691 Y10.873 F18000.000
G1 E2.00000 F2400.00000
G1 F1800
G1 X0.691 Y10.873 E2.08371
G1 X1.809 Y11.685 E2.16742
G1 X2.237 Y13.000 E2.25113
G1 X1.809 Y14.315 E2.33484
G1 X0.691 Y15.127 E2.41855
G1 X-0.691 Y15.127 E2.50226
G1 X-1.809 Y14.315 E2.58598
G1 X-2.237 Y13.000 E2.66969
G1 X-1.809 Y11.685 E2.75340
G1 X-0.740 Y10.908 E2.83347
G1 E0.83347 F2400.00000
G92 E0
G1 X-7.741 Y19.778 F18000.000
G1 E2.00000 F2400.00000
G1 F1800
G1 X-6.545 Y19.275 E2.07858
G1 X6.545 Y19.275 E2.87132
G1 X7.733 Y19.767 E2.94920
G1 X8.225 Y20.955 E3.02709
G1 X8.225 Y33.030 E3.75831
G1 X8.001 Y33.866 E3.81078
G1 X7.366 Y34.501 E3.86510
G1 X6.530 Y34.725 E3.91757
G1 X-6.530 Y34.725 E4.70843
G1 X-7.366 Y34.501 E4.76090
G1 X-8.001 Y33.866 E4.81523
G1 X-8.225 Y33.030 E4.86769
G1 X-8.225 Y20.956 E5.59890
G1 X-7.764 Y19.834 E5.67234
G1 X-8.055 Y19.822 F18000.000
G1 F1800
G1 X-8.701 Y19.708 E5.71209
G1 X-8.764 Y20.066 E5.73414
G1 X-8.406 Y20.130 E5.75620
G1 X-8.532 Y20.847 E5.80030
G1 X-8.891 Y20.784 E5.82236
G1 X-8.828 Y20.425 E5.84441
G1 X-9.186 Y20.362 E5.86646
G1 X-9.249 Y20.720 E5.88852
G1 X-9.608 Y20.657 E5.91057
G1 X-9.482 Y19.940 E5.95468
G1 X-9.123 Y20.003 E5.97673
G1 X-9.060 Y19.645 E5.99879
G1 X-9.418 Y19.581 E6.02084
G1 X-9.355 Y19.223 E6.04289
G1 X-8.996 Y19.286 E6.06495
G1 X-8.933 Y18.927 E6.08700
G1 X-9.292 Y18.864 E6.10905
G1 X-9.165 Y18.147 E6.15316
G1 X-8.807 Y18.210 E6.17521
G1 X-8.870 Y18.569 E6.19727
G1 X-8.511 Y18.632 E6.21932
G1 X-8.448 Y18.273 E6.24137
G1 X-8.089 Y18.337 E6.26343
G1 X-8.216 Y19.054 E6.30753
G1 X-8.575 Y18.991 E6.32959
G1 X-8.638 Y19.349 E6.35164
G1 X-7.921 Y19.476 E6.39575
G1 X-7.857 Y19.117 E6.41780
G1 X-7.499 Y19.180 E6.43985
G1 X-7.537 Y19.396 E6.45311
G1 X-7.137 Y19.228 F18000.000
G1 F1800
G1 X-7.077 Y18.885 E6.47419
G1 X-6.718 Y18.948 E6.49625
G1 X-6.655 Y18.590 E6.51830
G1 X-7.372 Y18.463 E6.56241
G1 X-7.435 Y18.822 E6.58446
G1 X-7.794 Y18.758 E6.60651
G1 X-7.604 Y17.683 E6.67267
G1 X-7.246 Y17.746 E6.69473
G1 X-7.309 Y18.104 E6.71678
G1 X-6.592 Y18.231 E6.76089
G1 X-6.528 Y17.872 E6.78294
G1 X-6.887 Y17.809 E6.80500
G1 X-6.824 Y17.450 E6.82705
G1 X-6.465 Y17.514 E6.84910
G1 X-6.402 Y17.155 E6.87116
G1 X-7.119 Y17.029 E6.91526
G1 X-7.183 Y17.387 E6.93732
G1 X-7.541 Y17.324 E6.95937
G1 X-7.478 Y16.965 E6.98142
G1 X-8.195 Y16.839 E7.02553
G1 X-8.258 Y17.197 E7.04758
G1 X-7.900 Y17.261 E7.06964
G1 X-8.026 Y17.978 E7.11374
G1 X-8.385 Y17.915 E7.13580
G1 X-8.322 Y17.556 E7.15785
G1 X-8.680 Y17.493 E7.17990
G1 X-8.743 Y17.851 E7.20196
G1 X-9.102 Y17.788 E7.22401
G1 X-8.976 Y17.071 E7.26812
G1 X-8.617 Y17.134 E7.29017
G1 X-8.554 Y16.776 E7.31222
G1 X-9.271 Y16.649 E7.35633
G1 X-9.334 Y17.008 E7.37838
G1 X-9.693 Y16.945 E7.40044
G1 X-9.630 Y16.586 E7.42249
G1 X-10.347 Y16.459 E7.46660
G1 X-10.410 Y16.818 E7.48865
G1 X-10.052 Y16.881 E7.51071
G1 X-10.115 Y17.240 E7.53276
G1 X-10.473 Y17.177 E7.55481
G1 X-10.537 Y17.535 E7.57687
G1 X-9.819 Y17.662 E7.62097
G1 X-9.756 Y17.303 E7.64303
G1 X-9.397 Y17.366 E7.66508
G1 X-9.524 Y18.084 E7.70919
G1 X-9.883 Y18.020 E7.73124
G1 X-9.946 Y18.379 E7.75329
G1 X-9.587 Y18.442 E7.77535
G1 X-9.714 Y19.160 E7.81945
G1 X-10.072 Y19.096 E7.84151
G1 X-10.009 Y18.738 E7.86356
G1 X-10.368 Y18.674 E7.88561
G1 X-10.431 Y19.033 E7.90767
G1 X-10.790 Y18.970 E7.92972
G1 X-10.663 Y18.253 E7.97383
G1 X-10.304 Y18.316 E7.99588
G1 X-10.241 Y17.957 E8.01793
G1 X-11.317 Y17.767 E8.08409
G1 X-11.380 Y18.126 E8.10615
G1 X-11.022 Y18.189 E8.12820
G1 X-11.148 Y18.907 E8.17231
G1 X-11.507 Y18.843 E8.19436
G1 X-11.444 Y18.485 E8.21642
G1 X-11.802 Y18.421 E8.23847
G1 X-11.865 Y18.780 E8.26052
G1 X-12.224 Y18.717 E8.28258
G1 X-12.098 Y18.000 E8.32668
G1 X-11.739 Y18.063 E8.34874
G1 X-11.676 Y17.704 E8.37079
G1 X-12.034 Y17.641 E8.39284
G1 X-11.908 Y16.924 E8.43695
G1 X-11.549 Y16.987 E8.45900
G1 X-11.612 Y17.346 E8.48106
G1 X-10.895 Y17.472 E8.52516
G1 X-10.832 Y17.113 E8.54722
G1 X-11.191 Y17.050 E8.56927
G1 X-11.127 Y16.692 E8.59132
G1 X-10.769 Y16.755 E8.61338
G1 X-10.706 Y16.396 E8.63543
G1 X-11.423 Y16.270 E8.67954
G1 X-11.486 Y16.628 E8.70159
G1 X-11.845 Y16.565 E8.72364
G1 X-11.781 Y16.206 E8.74570
G1 X-12.499 Y16.080 E8.78981
G1 X-12.562 Y16.439 E8.81186
G1 X-12.203 Y16.502 E8.83391
G1 X-12.330 Y17.219 E8.87802
G1 X-12.688 Y17.156 E8.90007
G1 X-12.625 Y16.797 E8.92213
G1 X-12.984 Y16.734 E8.94418
G1 X-13.002 Y16.837 E8.95050
G1 X-13.002 Y16.361 F18000.000
G1 F1800
G1 X-12.921 Y16.375 E8.95551
G1 X-12.857 Y16.017 E8.97756
G1 X-13.002 Y15.991 E8.98645
G1 X-13.002 Y15.622 F18000.000
G1 F1800
G1 X-12.794 Y15.658 E8.99924
G1 X-12.731 Y15.300 E9.02129
G1 X-13.002 Y15.252 E9.03796
G1 X-13.002 Y14.740 F18000.000
G1 F1800
G1 X-12.963 Y14.519 E9.05153
G1 X-12.604 Y14.582 E9.07359
G1 X-12.668 Y14.941 E9.09564
G1 X-12.309 Y15.004 E9.11769
G1 X-12.246 Y14.646 E9.13975
G1 X-11.887 Y14.709 E9.16180
G1 X-12.014 Y15.426 E9.20591
G1 X-12.372 Y15.363 E9.22796
G1 X-12.435 Y15.721 E9.25001
G1 X-11.718 Y15.848 E9.29412
G1 X-11.655 Y15.489 E9.31617
G1 X-11.296 Y15.552 E9.33823
G1 X-11.360 Y15.911 E9.36028
G1 X-10.642 Y16.038 E9.40439
G1 X-10.579 Y15.679 E9.42644
G1 X-10.938 Y15.616 E9.44849
G1 X-10.874 Y15.257 E9.47055
G1 X-10.516 Y15.320 E9.49260
G1 X-10.453 Y14.962 E9.51466
G1 X-11.170 Y14.835 E9.55876
G1 X-11.233 Y15.194 E9.58082
G1 X-11.592 Y15.131 E9.60287
G1 X-11.465 Y14.413 E9.64698
G1 X-11.107 Y14.477 E9.66903
G1 X-11.043 Y14.118 E9.69108
G1 X-11.402 Y14.055 E9.71314
G1 X-11.276 Y13.337 E9.75724
G1 X-10.917 Y13.401 E9.77930
G1 X-10.980 Y13.759 E9.80135
G1 X-10.622 Y13.823 E9.82340
G1 X-10.558 Y13.464 E9.84546
G1 X-10.200 Y13.527 E9.86751
G1 X-10.326 Y14.244 E9.91162
G1 X-10.685 Y14.181 E9.93367
G1 X-10.748 Y14.540 E9.95572
G1 X-9.672 Y14.730 E10.02188
G1 X-9.609 Y14.371 E10.04394
G1 X-9.967 Y14.308 E10.06599
G1 X-9.841 Y13.590 E10.11010
G1 X-9.482 Y13.654 E10.13215
G1 X-9.546 Y14.012 E10.15421
G1 X-9.187 Y14.076 E10.17626
G1 X-9.124 Y13.717 E10.19831
G1 X-8.765 Y13.780 E10.22037
G1 X-8.892 Y14.497 E10.26447
G1 X-9.250 Y14.434 E10.28653
G1 X-9.313 Y14.793 E10.30858
G1 X-8.955 Y14.856 E10.33063
G1 X-9.081 Y15.573 E10.37474
G1 X-9.440 Y15.510 E10.39679
G1 X-9.377 Y15.151 E10.41885
G1 X-10.094 Y15.025 E10.46295
G1 X-10.157 Y15.384 E10.48501
G1 X-9.799 Y15.447 E10.50706
G1 X-9.862 Y15.805 E10.52911
G1 X-10.220 Y15.742 E10.55117
G1 X-10.284 Y16.101 E10.57322
G1 X-9.566 Y16.227 E10.61733
G1 X-9.503 Y15.869 E10.63938
G1 X-9.145 Y15.932 E10.66143
G1 X-9.208 Y16.291 E10.68349
G1 X-8.491 Y16.417 E10.72759
G1 X-8.427 Y16.058 E10.74965
G1 X-8.786 Y15.995 E10.77170
G1 X-8.723 Y15.636 E10.79376
G1 X-8.659 Y15.278 E10.81581
G1 X-8.301 Y15.341 E10.83786
G1 X-8.364 Y15.700 E10.85992
G1 X-8.005 Y15.763 E10.88197
G1 X-7.942 Y15.404 E10.90402
G1 X-7.584 Y15.468 E10.92608
G1 X-7.710 Y16.185 E10.97018
G1 X-8.069 Y16.122 E10.99224
G1 X-8.132 Y16.480 E11.01429
G1 X-7.415 Y16.607 E11.05840
G1 X-7.351 Y16.248 E11.08045
G1 X-6.993 Y16.311 E11.10250
G1 X-7.056 Y16.670 E11.12456
G1 X-6.339 Y16.796 E11.16866
G1 X-6.276 Y16.438 E11.19072
G1 X-6.634 Y16.375 E11.21277
G1 X-6.571 Y16.016 E11.23482
G1 X-6.212 Y16.079 E11.25688
G1 X-6.149 Y15.721 E11.27893
G1 X-6.866 Y15.594 E11.32304
G1 X-6.930 Y15.953 E11.34509
G1 X-7.288 Y15.889 E11.36714
G1 X-7.225 Y15.531 E11.38920
G1 X-7.098 Y14.814 E11.43330
G1 X-6.740 Y14.877 E11.45536
G1 X-6.803 Y15.235 E11.47741
G1 X-6.086 Y15.362 E11.52152
G1 X-6.023 Y15.003 E11.54357
G1 X-6.381 Y14.940 E11.56563
G1 X-6.318 Y14.581 E11.58768
G1 X-5.959 Y14.645 E11.60973
G1 X-5.896 Y14.286 E11.63179
G1 X-6.613 Y14.160 E11.67589
G1 X-6.677 Y14.518 E11.69795
G1 X-7.035 Y14.455 E11.72000
G1 X-6.972 Y14.096 E11.74205
G1 X-7.689 Y13.970 E11.78616
G1 X-7.752 Y14.328 E11.80821
G1 X-7.394 Y14.392 E11.83027
G1 X-7.520 Y15.109 E11.87437
G1 X-7.879 Y15.046 E11.89643
G1 X-7.816 Y14.687 E11.91848
G1 X-8.174 Y14.624 E11.94053
G1 X-8.238 Y14.982 E11.96259
G1 X-8.596 Y14.919 E11.98464
G1 X-8.470 Y14.202 E12.02875
G1 X-8.111 Y14.265 E12.05080
G1 X-8.048 Y13.907 E12.07285
G1 X-8.407 Y13.843 E12.09491
G1 X-8.343 Y13.485 E12.11696
G1 X-7.985 Y13.548 E12.13902
G1 X-7.921 Y13.189 E12.16107
G1 X-8.280 Y13.126 E12.18312
G1 X-8.154 Y12.409 E12.22723
G1 X-7.795 Y12.472 E12.24928
G1 X-7.858 Y12.831 E12.27134
G1 X-7.500 Y12.894 E12.29339
G1 X-7.436 Y12.535 E12.31544
G1 X-7.078 Y12.599 E12.33750
G1 X-7.204 Y13.316 E12.38160
G1 X-7.563 Y13.253 E12.40366
G1 X-7.626 Y13.611 E12.42571
G1 X-6.909 Y13.738 E12.46982
G1 X-6.846 Y13.379 E12.49187
G1 X-6.487 Y13.442 E12.51392
G1 X-6.550 Y13.801 E12.53598
G1 X-5.833 Y13.927 E12.58008
G1 X-5.770 Y13.569 E12.60214
G1 X-6.128 Y13.506 E12.62419
G1 X-6.065 Y13.147 E12.64624
G1 X-5.706 Y13.210 E12.66830
G1 X-5.643 Y12.851 E12.69035
G1 X-6.360 Y12.725 E12.73446
G1 X-6.424 Y13.084 E12.75651
G1 X-6.782 Y13.020 E12.77857
G1 X-6.593 Y11.945 E12.84473
G1 X-6.234 Y12.008 E12.86678
G1 X-6.297 Y12.366 E12.88883
G1 X-5.580 Y12.493 E12.93294
G1 X-5.517 Y12.134 E12.95499
G1 X-5.875 Y12.071 E12.97705
G1 X-5.812 Y11.712 E12.99910
G1 X-5.453 Y11.776 E13.02115
G1 X-5.390 Y11.417 E13.04321
G1 X-6.107 Y11.291 E13.08731
G1 X-6.171 Y11.649 E13.10937
G1 X-6.529 Y11.586 E13.13142
G1 X-6.466 Y11.227 E13.15347
G1 X-7.183 Y11.101 E13.19758
G1 X-7.247 Y11.459 E13.21963
G1 X-6.888 Y11.523 E13.24169
G1 X-7.014 Y12.240 E13.28579
G1 X-7.373 Y12.177 E13.30785
G1 X-7.310 Y11.818 E13.32990
G1 X-7.668 Y11.755 E13.35195
G1 X-7.732 Y12.113 E13.37401
G1 X-8.090 Y12.050 E13.39606
G1 X-7.964 Y11.333 E13.44017
G1 X-7.605 Y11.396 E13.46222
G1 X-7.542 Y11.038 E13.48428
G1 X-8.259 Y10.911 E13.52838
G1 X-8.322 Y11.270 E13.55044
G1 X-8.681 Y11.206 E13.57249
G1 X-8.618 Y10.848 E13.59454
G1 X-9.335 Y10.721 E13.63865
G1 X-9.398 Y11.080 E13.66070
G1 X-9.040 Y11.143 E13.68276
G1 X-9.103 Y11.502 E13.70481
G1 X-9.462 Y11.439 E13.72686
G1 X-9.525 Y11.797 E13.74892
G1 X-8.808 Y11.924 E13.79302
G1 X-8.744 Y11.565 E13.81508
G1 X-8.386 Y11.628 E13.83713
G1 X-8.512 Y12.346 E13.88124
G1 X-8.871 Y12.282 E13.90329
G1 X-8.934 Y12.641 E13.92534
G1 X-8.575 Y12.704 E13.94740
G1 X-8.702 Y13.421 E13.99150
G1 X-9.061 Y13.358 E14.01356
G1 X-8.997 Y13.000 E14.03561
G1 X-9.356 Y12.936 E14.05766
G1 X-9.419 Y13.295 E14.07972
G1 X-9.778 Y13.232 E14.10177
G1 X-9.651 Y12.515 E14.14588
G1 X-9.293 Y12.578 E14.16793
G1 X-9.229 Y12.219 E14.18999
G1 X-10.305 Y12.029 E14.25615
G1 X-10.369 Y12.388 E14.27820
G1 X-10.010 Y12.451 E14.30025
G1 X-10.136 Y13.169 E14.34436
G1 X-10.495 Y13.105 E14.36641
G1 X-10.432 Y12.747 E14.38847
G1 X-10.790 Y12.683 E14.41052
G1 X-10.854 Y13.042 E14.43257
G1 X-11.212 Y12.979 E14.45463
G1 X-11.086 Y12.262 E14.49873
G1 X-10.727 Y12.325 E14.52079
G1 X-10.664 Y11.966 E14.54284
G1 X-11.023 Y11.903 E14.56489
G1 X-10.896 Y11.186 E14.60900
G1 X-10.537 Y11.249 E14.63105
G1 X-10.601 Y11.608 E14.65311
G1 X-9.883 Y11.734 E14.69722
G1 X-9.820 Y11.375 E14.71927
G1 X-10.179 Y11.312 E14.74132
G1 X-10.116 Y10.954 E14.76338
G1 X-9.757 Y11.017 E14.78543
G1 X-9.694 Y10.658 E14.80748
G1 X-10.411 Y10.532 E14.85159
G1 X-10.474 Y10.890 E14.87364
G1 X-10.833 Y10.827 E14.89570
G1 X-10.643 Y9.751 E14.96186
G1 X-10.285 Y9.814 E14.98391
G1 X-10.348 Y10.173 E15.00596
G1 X-9.631 Y10.300 E15.05007
G1 X-9.567 Y9.941 E15.07212
G1 X-9.926 Y9.878 E15.09418
G1 X-9.863 Y9.519 E15.11623
G1 X-9.504 Y9.582 E15.13828
G1 X-9.441 Y9.224 E15.16034
G1 X-10.158 Y9.097 E15.20444
G1 X-10.221 Y9.456 E15.22650
G1 X-10.580 Y9.393 E15.24855
G1 X-10.453 Y8.675 E15.29266
G1 X-10.095 Y8.739 E15.31471
G1 X-10.032 Y8.380 E15.33676
G1 X-10.390 Y8.317 E15.35882
G1 X-10.264 Y7.599 E15.40293
G1 X-9.905 Y7.663 E15.42498
G1 X-9.968 Y8.021 E15.44703
G1 X-9.610 Y8.085 E15.46909
G1 X-9.547 Y7.726 E15.49114
G1 X-9.188 Y7.789 E15.51319
G1 X-9.314 Y8.506 E15.55730
G1 X-9.673 Y8.443 E15.57935
G1 X-9.736 Y8.802 E15.60141
G1 X-8.660 Y8.992 E15.66757
G1 X-8.597 Y8.633 E15.68962
G1 X-8.956 Y8.570 E15.71167
G1 X-8.829 Y7.852 E15.75578
G1 X-8.471 Y7.916 E15.77783
G1 X-8.534 Y8.274 E15.79989
G1 X-8.175 Y8.337 E15.82194
G1 X-8.112 Y7.979 E15.84399
G1 X-7.753 Y8.042 E15.86605
G1 X-7.880 Y8.759 E15.91015
